
(Makerbot Industries)
(This file contains digital fabrication directives in gcode format)
(For your 3D printer)
(http://wiki.makerbot.com/gcode)
(* Generated by Miracle-Grue v 0.04 alpha)
(* 2012-7-13 16:53:51)
(* machine name: Dub dub dub)
(* firmware revision:unknown)
(* src/test/stl/single.stl)
(* 2 extruder)
(* Extrude infills: 1)
(* first operation: Insets)
(* Extrude insets: 1)
(* Extrude outlines: 0)

(header [/tmp/tmphbhPG9.gcode] begin)
(header [/tmp/tmphbhPG9.gcode] end)

(Slice 0, 1 Extruder)
G1 Z0.330 F500.000 (move Z)
(insets: 2)
G1 X9.784 Y9.784 Z0.330 F6000.000 (move into position)
G1 F798.000 A0.500 (squirt)
G1 X9.784 Y-9.784 Z0.330 F1800.000 A1.256 (d: 19.568)
G1 X-9.784 Y-9.784 Z0.330 F1800.000 A2.011 (d: 19.568)
G1 X-9.784 Y9.784 Z0.330 F1800.000 A2.767 (d: 19.568)
G1 X9.784 Y9.784 Z0.330 F1800.000 A3.522 (d: 19.568)
G1 F798.000 A3.022 (snort)

G1 X9.397 Y9.397 Z0.330 F6000.000 (move into position)
G1 F798.000 A3.522 (squirt)
G1 X9.397 Y-9.397 Z0.330 F1800.000 A4.248 (d: 18.794)
G1 X-9.397 Y-9.397 Z0.330 F1800.000 A4.974 (d: 18.794)
G1 X-9.397 Y9.397 Z0.330 F1800.000 A5.699 (d: 18.794)
G1 X9.397 Y9.397 Z0.330 F1800.000 A6.425 (d: 18.794)
G1 F798.000 A5.925 (snort)

(infills: 1)
G1 X-9.397 Y-8.775 Z0.330 F6000.000 (move into position)
G1 F798.000 A6.425 (squirt)
G1 X9.397 Y-8.775 Z0.330 F1800.000 A7.151 (d: 18.794)
G1 X9.397 Y-8.366 Z0.330 F1800.000 A7.167 (d: 0.4085)
G1 X-9.397 Y-8.366 Z0.330 F1800.000 A7.892 (d: 18.794)
G1 X-9.397 Y-7.958 Z0.330 F1800.000 A7.908 (d: 0.4085)
G1 X9.397 Y-7.958 Z0.330 F1800.000 A8.634 (d: 18.794)
G1 X9.397 Y-7.549 Z0.330 F1800.000 A8.650 (d: 0.4085)
G1 X-9.397 Y-7.549 Z0.330 F1800.000 A9.375 (d: 18.794)
G1 X-9.397 Y-7.141 Z0.330 F1800.000 A9.391 (d: 0.4085)
G1 X9.397 Y-7.141 Z0.330 F1800.000 A10.117 (d: 18.794)
G1 X9.397 Y-6.732 Z0.330 F1800.000 A10.133 (d: 0.4085)
G1 X-9.397 Y-6.732 Z0.330 F1800.000 A10.858 (d: 18.794)
G1 X-9.397 Y-6.324 Z0.330 F1800.000 A10.874 (d: 0.4085)
G1 X9.397 Y-6.324 Z0.330 F1800.000 A11.600 (d: 18.794)
G1 X9.397 Y-5.915 Z0.330 F1800.000 A11.616 (d: 0.4085)
G1 X-9.397 Y-5.915 Z0.330 F1800.000 A12.341 (d: 18.794)
G1 X-9.397 Y-5.507 Z0.330 F1800.000 A12.357 (d: 0.4085)
G1 X9.397 Y-5.507 Z0.330 F1800.000 A13.083 (d: 18.794)
G1 X9.397 Y-5.098 Z0.330 F1800.000 A13.099 (d: 0.4085)
G1 X-9.397 Y-5.098 Z0.330 F1800.000 A13.824 (d: 18.794)
G1 X-9.397 Y-4.690 Z0.330 F1800.000 A13.840 (d: 0.4085)
G1 X9.397 Y-4.690 Z0.330 F1800.000 A14.566 (d: 18.794)
G1 X9.397 Y-4.281 Z0.330 F1800.000 A14.581 (d: 0.4085)
G1 X-9.397 Y-4.281 Z0.330 F1800.000 A15.307 (d: 18.794)
G1 X-9.397 Y-3.873 Z0.330 F1800.000 A15.323 (d: 0.4085)
G1 X9.397 Y-3.873 Z0.330 F1800.000 A16.049 (d: 18.794)
G1 X9.397 Y-3.464 Z0.330 F1800.000 A16.064 (d: 0.4085)
G1 X-9.397 Y-3.464 Z0.330 F1800.000 A16.790 (d: 18.794)
G1 X-9.397 Y-3.056 Z0.330 F1800.000 A16.806 (d: 0.4085)
G1 X9.397 Y-3.056 Z0.330 F1800.000 A17.532 (d: 18.794)
G1 X9.397 Y-2.647 Z0.330 F1800.000 A17.547 (d: 0.4085)
G1 X-9.397 Y-2.647 Z0.330 F1800.000 A18.273 (d: 18.794)
G1 X-9.397 Y-2.239 Z0.330 F1800.000 A18.289 (d: 0.4085)
G1 X9.397 Y-2.239 Z0.330 F1800.000 A19.015 (d: 18.794)
G1 X9.397 Y-1.830 Z0.330 F1800.000 A19.030 (d: 0.4085)
G1 X-9.397 Y-1.830 Z0.330 F1800.000 A19.756 (d: 18.794)
G1 X-9.397 Y-1.422 Z0.330 F1800.000 A19.772 (d: 0.4085)
G1 X9.397 Y-1.422 Z0.330 F1800.000 A20.498 (d: 18.794)
G1 X9.397 Y-1.013 Z0.330 F1800.000 A20.513 (d: 0.4085)
G1 X-9.397 Y-1.013 Z0.330 F1800.000 A21.239 (d: 18.794)
G1 X-9.397 Y-0.605 Z0.330 F1800.000 A21.255 (d: 0.4085)
G1 X9.397 Y-0.605 Z0.330 F1800.000 A21.980 (d: 18.794)
G1 X9.397 Y-0.196 Z0.330 F1800.000 A21.996 (d: 0.4085)
G1 X-9.397 Y-0.196 Z0.330 F1800.000 A22.722 (d: 18.794)
G1 X-9.397 Y0.212 Z0.330 F1800.000 A22.738 (d: 0.4085)
G1 X9.397 Y0.212 Z0.330 F1800.000 A23.463 (d: 18.794)
G1 X9.397 Y0.621 Z0.330 F1800.000 A23.479 (d: 0.4085)
G1 X-9.397 Y0.621 Z0.330 F1800.000 A24.205 (d: 18.794)
G1 X-9.397 Y1.029 Z0.330 F1800.000 A24.221 (d: 0.4085)
G1 X9.397 Y1.029 Z0.330 F1800.000 A24.946 (d: 18.794)
G1 X9.397 Y1.438 Z0.330 F1800.000 A24.962 (d: 0.4085)
G1 X-9.397 Y1.438 Z0.330 F1800.000 A25.688 (d: 18.794)
G1 X-9.397 Y1.846 Z0.330 F1800.000 A25.704 (d: 0.4085)
G1 X9.397 Y1.846 Z0.330 F1800.000 A26.429 (d: 18.794)
G1 X9.397 Y2.255 Z0.330 F1800.000 A26.445 (d: 0.4085)
G1 X-9.397 Y2.255 Z0.330 F1800.000 A27.171 (d: 18.794)
G1 X-9.397 Y2.663 Z0.330 F1800.000 A27.187 (d: 0.4085)
G1 X9.397 Y2.663 Z0.330 F1800.000 A27.912 (d: 18.794)
G1 X9.397 Y3.072 Z0.330 F1800.000 A27.928 (d: 0.4085)
G1 X-9.397 Y3.072 Z0.330 F1800.000 A28.654 (d: 18.794)
G1 X-9.397 Y3.480 Z0.330 F1800.000 A28.670 (d: 0.4085)
G1 X9.397 Y3.480 Z0.330 F1800.000 A29.395 (d: 18.794)
G1 X9.397 Y3.889 Z0.330 F1800.000 A29.411 (d: 0.4085)
G1 X-9.397 Y3.889 Z0.330 F1800.000 A30.137 (d: 18.794)
G1 X-9.397 Y4.297 Z0.330 F1800.000 A30.153 (d: 0.4085)
G1 X9.397 Y4.297 Z0.330 F1800.000 A30.878 (d: 18.794)
G1 X9.397 Y4.706 Z0.330 F1800.000 A30.894 (d: 0.4085)
G1 X-9.397 Y4.706 Z0.330 F1800.000 A31.620 (d: 18.794)
G1 X-9.397 Y5.114 Z0.330 F1800.000 A31.635 (d: 0.4085)
G1 X9.397 Y5.114 Z0.330 F1800.000 A32.361 (d: 18.794)
G1 X9.397 Y5.523 Z0.330 F1800.000 A32.377 (d: 0.4085)
G1 X-9.397 Y5.523 Z0.330 F1800.000 A33.103 (d: 18.794)
G1 X-9.397 Y5.931 Z0.330 F1800.000 A33.118 (d: 0.4085)
G1 X9.397 Y5.931 Z0.330 F1800.000 A33.844 (d: 18.794)
G1 X9.397 Y6.340 Z0.330 F1800.000 A33.860 (d: 0.4085)
G1 X-9.397 Y6.340 Z0.330 F1800.000 A34.586 (d: 18.794)
G1 X-9.397 Y6.748 Z0.330 F1800.000 A34.601 (d: 0.4085)
G1 X9.397 Y6.748 Z0.330 F1800.000 A35.327 (d: 18.794)
G1 X9.397 Y7.157 Z0.330 F1800.000 A35.343 (d: 0.4085)
G1 X-9.397 Y7.157 Z0.330 F1800.000 A36.069 (d: 18.794)
G1 X-9.397 Y7.565 Z0.330 F1800.000 A36.084 (d: 0.4085)
G1 X9.397 Y7.565 Z0.330 F1800.000 A36.810 (d: 18.794)
G1 X9.397 Y7.974 Z0.330 F1800.000 A36.826 (d: 0.4085)
G1 X-9.397 Y7.974 Z0.330 F1800.000 A37.552 (d: 18.794)
G1 X-9.397 Y8.382 Z0.330 F1800.000 A37.567 (d: 0.4085)
G1 X9.397 Y8.382 Z0.330 F1800.000 A38.293 (d: 18.794)
G1 X9.397 Y8.791 Z0.330 F1800.000 A38.309 (d: 0.4085)
G1 X-9.397 Y8.791 Z0.330 F1800.000 A39.035 (d: 18.794)
G1 X-9.397 Y9.199 Z0.330 F1800.000 A39.050 (d: 0.4085)
G1 X9.397 Y9.199 Z0.330 F1800.000 A39.776 (d: 18.794)
G1 X9.397 Y-9.183 Z0.330 F1800.000 A40.486 (d: 18.3825)
G1 X-9.397 Y-9.183 Z0.330 F1800.000 A41.212 (d: 18.794)
G1 F798.000 A40.712 (snort)

(Slice 1, 1 Extruder)
G1 Z0.600 F500.000 (move Z)
(insets: 2)
G1 X9.784 Y9.784 Z0.600 F6000.000 (move into position)
G1 F798.000 A41.212 (squirt)
G1 X9.784 Y-9.784 Z0.600 F4800.000 A41.967 (d: 19.568)
G1 X-9.784 Y-9.784 Z0.600 F4800.000 A42.723 (d: 19.568)
G1 X-9.784 Y9.784 Z0.600 F4800.000 A43.478 (d: 19.568)
G1 X9.784 Y9.784 Z0.600 F4800.000 A44.234 (d: 19.568)
G1 F798.000 A43.734 (snort)

G1 X9.397 Y9.397 Z0.600 F6000.000 (move into position)
G1 F798.000 A44.234 (squirt)
G1 X9.397 Y-9.397 Z0.600 F4800.000 A44.960 (d: 18.794)
G1 X-9.397 Y-9.397 Z0.600 F4800.000 A45.685 (d: 18.794)
G1 X-9.397 Y9.397 Z0.600 F4800.000 A46.411 (d: 18.794)
G1 X9.397 Y9.397 Z0.600 F4800.000 A47.137 (d: 18.794)
G1 F798.000 A46.637 (snort)

(infills: 1)
G1 X-8.774 Y-9.397 Z0.600 F6000.000 (move into position)
G1 F798.000 A47.137 (squirt)
G1 X-8.774 Y9.397 Z0.600 F4800.000 A47.862 (d: 18.794)
G1 X-8.366 Y9.397 Z0.600 F4800.000 A47.878 (d: 0.4085)
G1 X-8.366 Y-9.397 Z0.600 F4800.000 A48.604 (d: 18.794)
G1 X-7.957 Y-9.397 Z0.600 F4800.000 A48.620 (d: 0.4085)
G1 X-7.957 Y9.397 Z0.600 F4800.000 A49.345 (d: 18.794)
G1 X-7.549 Y9.397 Z0.600 F4800.000 A49.361 (d: 0.4085)
G1 X-7.549 Y-9.397 Z0.600 F4800.000 A50.087 (d: 18.794)
G1 X-7.140 Y-9.397 Z0.600 F4800.000 A50.103 (d: 0.4085)
G1 X-7.140 Y9.397 Z0.600 F4800.000 A50.828 (d: 18.794)
G1 X-6.732 Y9.397 Z0.600 F4800.000 A50.844 (d: 0.4085)
G1 X-6.732 Y-9.397 Z0.600 F4800.000 A51.570 (d: 18.794)
G1 X-6.323 Y-9.397 Z0.600 F4800.000 A51.586 (d: 0.4085)
G1 X-6.323 Y9.397 Z0.600 F4800.000 A52.311 (d: 18.794)
G1 X-5.915 Y9.397 Z0.600 F4800.000 A52.327 (d: 0.4085)
G1 X-5.915 Y-9.397 Z0.600 F4800.000 A53.053 (d: 18.794)
G1 X-5.506 Y-9.397 Z0.600 F4800.000 A53.069 (d: 0.4085)
G1 X-5.506 Y9.397 Z0.600 F4800.000 A53.794 (d: 18.794)
G1 X-5.098 Y9.397 Z0.600 F4800.000 A53.810 (d: 0.4085)
G1 X-5.098 Y-9.397 Z0.600 F4800.000 A54.536 (d: 18.794)
G1 X-4.689 Y-9.397 Z0.600 F4800.000 A54.551 (d: 0.4085)
G1 X-4.689 Y9.397 Z0.600 F4800.000 A55.277 (d: 18.794)
G1 X-4.281 Y9.397 Z0.600 F4800.000 A55.293 (d: 0.4085)
G1 X-4.281 Y-9.397 Z0.600 F4800.000 A56.019 (d: 18.794)
G1 X-3.872 Y-9.397 Z0.600 F4800.000 A56.034 (d: 0.4085)
G1 X-3.872 Y9.397 Z0.600 F4800.000 A56.760 (d: 18.794)
G1 X-3.464 Y9.397 Z0.600 F4800.000 A56.776 (d: 0.4085)
G1 X-3.464 Y-9.397 Z0.600 F4800.000 A57.502 (d: 18.794)
G1 X-3.055 Y-9.397 Z0.600 F4800.000 A57.517 (d: 0.4085)
G1 X-3.055 Y9.397 Z0.600 F4800.000 A58.243 (d: 18.794)
G1 X-2.647 Y9.397 Z0.600 F4800.000 A58.259 (d: 0.4085)
G1 X-2.647 Y-9.397 Z0.600 F4800.000 A58.985 (d: 18.794)
G1 X-2.238 Y-9.397 Z0.600 F4800.000 A59.000 (d: 0.4085)
G1 X-2.238 Y9.397 Z0.600 F4800.000 A59.726 (d: 18.794)
G1 X-1.830 Y9.397 Z0.600 F4800.000 A59.742 (d: 0.4085)
G1 X-1.830 Y-9.397 Z0.600 F4800.000 A60.468 (d: 18.794)
G1 X-1.421 Y-9.397 Z0.600 F4800.000 A60.483 (d: 0.4085)
G1 X-1.421 Y9.397 Z0.600 F4800.000 A61.209 (d: 18.794)
G1 X-1.013 Y9.397 Z0.600 F4800.000 A61.225 (d: 0.4085)
G1 X-1.013 Y-9.397 Z0.600 F4800.000 A61.951 (d: 18.794)
G1 X-0.604 Y-9.397 Z0.600 F4800.000 A61.966 (d: 0.4085)
G1 X-0.604 Y9.397 Z0.600 F4800.000 A62.692 (d: 18.794)
G1 X-0.196 Y9.397 Z0.600 F4800.000 A62.708 (d: 0.4085)
G1 X-0.196 Y-9.397 Z0.600 F4800.000 A63.433 (d: 18.794)
G1 X0.213 Y-9.397 Z0.600 F4800.000 A63.449 (d: 0.4085)
G1 X0.213 Y9.397 Z0.600 F4800.000 A64.175 (d: 18.794)
G1 X0.621 Y9.397 Z0.600 F4800.000 A64.191 (d: 0.4085)
G1 X0.621 Y-9.397 Z0.600 F4800.000 A64.916 (d: 18.794)
G1 X1.030 Y-9.397 Z0.600 F4800.000 A64.932 (d: 0.4085)
G1 X1.030 Y9.397 Z0.600 F4800.000 A65.658 (d: 18.794)
G1 X1.438 Y9.397 Z0.600 F4800.000 A65.674 (d: 0.4085)
G1 X1.438 Y-9.397 Z0.600 F4800.000 A66.399 (d: 18.794)
G1 X1.847 Y-9.397 Z0.600 F4800.000 A66.415 (d: 0.4085)
G1 X1.847 Y9.397 Z0.600 F4800.000 A67.141 (d: 18.794)
G1 X2.255 Y9.397 Z0.600 F4800.000 A67.157 (d: 0.4085)
G1 X2.255 Y-9.397 Z0.600 F4800.000 A67.882 (d: 18.794)
G1 X2.664 Y-9.397 Z0.600 F4800.000 A67.898 (d: 0.4085)
G1 X2.664 Y9.397 Z0.600 F4800.000 A68.624 (d: 18.794)
G1 X3.072 Y9.397 Z0.600 F4800.000 A68.640 (d: 0.4085)
G1 X3.072 Y-9.397 Z0.600 F4800.000 A69.365 (d: 18.794)
G1 X3.481 Y-9.397 Z0.600 F4800.000 A69.381 (d: 0.4085)
G1 X3.481 Y9.397 Z0.600 F4800.000 A70.107 (d: 18.794)
G1 X3.889 Y9.397 Z0.600 F4800.000 A70.123 (d: 0.4085)
G1 X3.889 Y-9.397 Z0.600 F4800.000 A70.848 (d: 18.794)
G1 X4.298 Y-9.397 Z0.600 F4800.000 A70.864 (d: 0.4085)
G1 X4.298 Y9.397 Z0.600 F4800.000 A71.590 (d: 18.794)
G1 X4.706 Y9.397 Z0.600 F4800.000 A71.606 (d: 0.4085)
G1 X4.706 Y-9.397 Z0.600 F4800.000 A72.331 (d: 18.794)
G1 X5.115 Y-9.397 Z0.600 F4800.000 A72.347 (d: 0.4085)
G1 X5.115 Y9.397 Z0.600 F4800.000 A73.073 (d: 18.794)
G1 X5.523 Y9.397 Z0.600 F4800.000 A73.088 (d: 0.4085)
G1 X5.523 Y-9.397 Z0.600 F4800.000 A73.814 (d: 18.794)
G1 X5.932 Y-9.397 Z0.600 F4800.000 A73.830 (d: 0.4085)
G1 X5.932 Y9.397 Z0.600 F4800.000 A74.556 (d: 18.794)
G1 X6.340 Y9.397 Z0.600 F4800.000 A74.571 (d: 0.4085)
G1 X6.340 Y-9.397 Z0.600 F4800.000 A75.297 (d: 18.794)
G1 X6.749 Y-9.397 Z0.600 F4800.000 A75.313 (d: 0.4085)
G1 X6.749 Y9.397 Z0.600 F4800.000 A76.039 (d: 18.794)
G1 X7.157 Y9.397 Z0.600 F4800.000 A76.054 (d: 0.4085)
G1 X7.157 Y-9.397 Z0.600 F4800.000 A76.780 (d: 18.794)
G1 X7.566 Y-9.397 Z0.600 F4800.000 A76.796 (d: 0.4085)
G1 X7.566 Y9.397 Z0.600 F4800.000 A77.522 (d: 18.794)
G1 X7.974 Y9.397 Z0.600 F4800.000 A77.537 (d: 0.4085)
G1 X7.974 Y-9.397 Z0.600 F4800.000 A78.263 (d: 18.794)
G1 X8.383 Y-9.397 Z0.600 F4800.000 A78.279 (d: 0.4085)
G1 X8.383 Y9.397 Z0.600 F4800.000 A79.005 (d: 18.794)
G1 X8.791 Y9.397 Z0.600 F4800.000 A79.020 (d: 0.4085)
G1 X8.791 Y-9.397 Z0.600 F4800.000 A79.746 (d: 18.794)
G1 X9.200 Y-9.397 Z0.600 F4800.000 A79.762 (d: 0.4085)
G1 X9.200 Y9.397 Z0.600 F4800.000 A80.487 (d: 18.794)
G1 X-9.183 Y9.397 Z0.600 F4800.000 A81.197 (d: 18.3825)
G1 X-9.183 Y-9.397 Z0.600 F4800.000 A81.923 (d: 18.794)
G1 F798.000 A81.423 (snort)

(Slice 2, 1 Extruder)
G1 Z0.870 F500.000 (move Z)
(insets: 2)
G1 X9.784 Y9.784 Z0.870 F6000.000 (move into position)
G1 F798.000 A81.923 (squirt)
G1 X9.784 Y-9.784 Z0.870 F4800.000 A82.679 (d: 19.568)
G1 X-9.784 Y-9.784 Z0.870 F4800.000 A83.434 (d: 19.568)
G1 X-9.784 Y9.784 Z0.870 F4800.000 A84.190 (d: 19.568)
G1 X9.784 Y9.784 Z0.870 F4800.000 A84.945 (d: 19.568)
G1 F798.000 A84.445 (snort)

G1 X9.397 Y9.397 Z0.870 F6000.000 (move into position)
G1 F798.000 A84.945 (squirt)
G1 X9.397 Y-9.397 Z0.870 F4800.000 A85.671 (d: 18.794)
G1 X-9.397 Y-9.397 Z0.870 F4800.000 A86.397 (d: 18.794)
G1 X-9.397 Y9.397 Z0.870 F4800.000 A87.122 (d: 18.794)
G1 X9.397 Y9.397 Z0.870 F4800.000 A87.848 (d: 18.794)
G1 F798.000 A87.348 (snort)

(infills: 2)
G1 X-9.397 Y-8.775 Z0.870 F6000.000 (move into position)
G1 F798.000 A87.848 (squirt)
G1 X9.397 Y-8.775 Z0.870 F4800.000 A88.574 (d: 18.794)
G1 X9.397 Y-8.366 Z0.870 F4800.000 A88.590 (d: 0.4085)
G1 X-9.397 Y-8.366 Z0.870 F4800.000 A89.315 (d: 18.794)
G1 X-9.397 Y-7.958 Z0.870 F4800.000 A89.331 (d: 0.4085)
G1 X9.397 Y-7.958 Z0.870 F4800.000 A90.057 (d: 18.794)
G1 X9.397 Y-7.549 Z0.870 F4800.000 A90.073 (d: 0.4085)
G1 X-9.397 Y-7.549 Z0.870 F4800.000 A90.798 (d: 18.794)
G1 X-9.397 Y-7.141 Z0.870 F4800.000 A90.814 (d: 0.4085)
G1 X9.397 Y-7.141 Z0.870 F4800.000 A91.540 (d: 18.794)
G1 X9.397 Y-6.732 Z0.870 F4800.000 A91.556 (d: 0.4085)
G1 X-9.397 Y-6.732 Z0.870 F4800.000 A92.281 (d: 18.794)
G1 X-9.397 Y-6.324 Z0.870 F4800.000 A92.297 (d: 0.4085)
G1 X9.397 Y-6.324 Z0.870 F4800.000 A93.023 (d: 18.794)
G1 X9.397 Y-5.915 Z0.870 F4800.000 A93.039 (d: 0.4085)
G1 X-9.397 Y-5.915 Z0.870 F4800.000 A93.764 (d: 18.794)
G1 X-9.397 Y-5.507 Z0.870 F4800.000 A93.780 (d: 0.4085)
G1 X9.397 Y-5.507 Z0.870 F4800.000 A94.506 (d: 18.794)
G1 X9.397 Y-5.098 Z0.870 F4800.000 A94.522 (d: 0.4085)
G1 X-9.397 Y-5.098 Z0.870 F4800.000 A95.247 (d: 18.794)
G1 X-9.397 Y-4.690 Z0.870 F4800.000 A95.263 (d: 0.4085)
G1 X9.397 Y-4.690 Z0.870 F4800.000 A95.989 (d: 18.794)
G1 X9.397 Y-4.281 Z0.870 F4800.000 A96.004 (d: 0.4085)
G1 X-9.397 Y-4.281 Z0.870 F4800.000 A96.730 (d: 18.794)
G1 X-9.397 Y-3.873 Z0.870 F4800.000 A96.746 (d: 0.4085)
G1 X9.397 Y-3.873 Z0.870 F4800.000 A97.472 (d: 18.794)
G1 X9.397 Y-3.464 Z0.870 F4800.000 A97.487 (d: 0.4085)
G1 X-9.397 Y-3.464 Z0.870 F4800.000 A98.213 (d: 18.794)
G1 X-9.397 Y-3.056 Z0.870 F4800.000 A98.229 (d: 0.4085)
G1 X9.397 Y-3.056 Z0.870 F4800.000 A98.955 (d: 18.794)
G1 X9.397 Y-2.647 Z0.870 F4800.000 A98.970 (d: 0.4085)
G1 X-9.397 Y-2.647 Z0.870 F4800.000 A99.696 (d: 18.794)
G1 X-9.397 Y-2.239 Z0.870 F4800.000 A99.712 (d: 0.4085)
G1 X9.397 Y-2.239 Z0.870 F4800.000 A100.438 (d: 18.794)
G1 X9.397 Y-1.830 Z0.870 F4800.000 A100.453 (d: 0.4085)
G1 X-9.397 Y-1.830 Z0.870 F4800.000 A101.179 (d: 18.794)
G1 X-9.397 Y-1.422 Z0.870 F4800.000 A101.195 (d: 0.4085)
G1 X9.397 Y-1.422 Z0.870 F4800.000 A101.921 (d: 18.794)
G1 X9.397 Y-1.013 Z0.870 F4800.000 A101.936 (d: 0.4085)
G1 X-9.397 Y-1.013 Z0.870 F4800.000 A102.662 (d: 18.794)
G1 X-9.397 Y-0.605 Z0.870 F4800.000 A102.678 (d: 0.4085)
G1 X9.397 Y-0.605 Z0.870 F4800.000 A103.403 (d: 18.794)
G1 X9.397 Y-0.196 Z0.870 F4800.000 A103.419 (d: 0.4085)
G1 X-9.397 Y-0.196 Z0.870 F4800.000 A104.145 (d: 18.794)
G1 X-9.397 Y0.212 Z0.870 F4800.000 A104.161 (d: 0.4085)
G1 X9.397 Y0.212 Z0.870 F4800.000 A104.886 (d: 18.794)
G1 X9.397 Y0.621 Z0.870 F4800.000 A104.902 (d: 0.4085)
G1 X-9.397 Y0.621 Z0.870 F4800.000 A105.628 (d: 18.794)
G1 X-9.397 Y1.029 Z0.870 F4800.000 A105.644 (d: 0.4085)
G1 X9.397 Y1.029 Z0.870 F4800.000 A106.369 (d: 18.794)
G1 X9.397 Y1.438 Z0.870 F4800.000 A106.385 (d: 0.4085)
G1 X-9.397 Y1.438 Z0.870 F4800.000 A107.111 (d: 18.794)
G1 X-9.397 Y1.846 Z0.870 F4800.000 A107.127 (d: 0.4085)
G1 X9.397 Y1.846 Z0.870 F4800.000 A107.852 (d: 18.794)
G1 X9.397 Y2.255 Z0.870 F4800.000 A107.868 (d: 0.4085)
G1 X-9.397 Y2.255 Z0.870 F4800.000 A108.594 (d: 18.794)
G1 X-9.397 Y2.663 Z0.870 F4800.000 A108.610 (d: 0.4085)
G1 X9.397 Y2.663 Z0.870 F4800.000 A109.335 (d: 18.794)
G1 X9.397 Y3.072 Z0.870 F4800.000 A109.351 (d: 0.4085)
G1 X-9.397 Y3.072 Z0.870 F4800.000 A110.077 (d: 18.794)
G1 X-9.397 Y3.480 Z0.870 F4800.000 A110.093 (d: 0.4085)
G1 X9.397 Y3.480 Z0.870 F4800.000 A110.818 (d: 18.794)
G1 X9.397 Y3.889 Z0.870 F4800.000 A110.834 (d: 0.4085)
G1 X-9.397 Y3.889 Z0.870 F4800.000 A111.560 (d: 18.794)
G1 X-9.397 Y4.297 Z0.870 F4800.000 A111.576 (d: 0.4085)
G1 X9.397 Y4.297 Z0.870 F4800.000 A112.301 (d: 18.794)
G1 X9.397 Y4.706 Z0.870 F4800.000 A112.317 (d: 0.4085)
G1 X-9.397 Y4.706 Z0.870 F4800.000 A113.043 (d: 18.794)
G1 X-9.397 Y5.114 Z0.870 F4800.000 A113.058 (d: 0.4085)
G1 X9.397 Y5.114 Z0.870 F4800.000 A113.784 (d: 18.794)
G1 X9.397 Y5.523 Z0.870 F4800.000 A113.800 (d: 0.4085)
G1 X-9.397 Y5.523 Z0.870 F4800.000 A114.526 (d: 18.794)
G1 X-9.397 Y5.931 Z0.870 F4800.000 A114.541 (d: 0.4085)
G1 X9.397 Y5.931 Z0.870 F4800.000 A115.267 (d: 18.794)
G1 X9.397 Y6.340 Z0.870 F4800.000 A115.283 (d: 0.4085)
G1 X-9.397 Y6.340 Z0.870 F4800.000 A116.009 (d: 18.794)
G1 X-9.397 Y6.748 Z0.870 F4800.000 A116.024 (d: 0.4085)
G1 X9.397 Y6.748 Z0.870 F4800.000 A116.750 (d: 18.794)
G1 X9.397 Y7.157 Z0.870 F4800.000 A116.766 (d: 0.4085)
G1 X-9.397 Y7.157 Z0.870 F4800.000 A117.492 (d: 18.794)
G1 X-9.397 Y7.565 Z0.870 F4800.000 A117.507 (d: 0.4085)
G1 X9.397 Y7.565 Z0.870 F4800.000 A118.233 (d: 18.794)
G1 X9.397 Y7.974 Z0.870 F4800.000 A118.249 (d: 0.4085)
G1 X-9.397 Y7.974 Z0.870 F4800.000 A118.975 (d: 18.794)
G1 X-9.397 Y8.382 Z0.870 F4800.000 A118.990 (d: 0.4085)
G1 X9.397 Y8.382 Z0.870 F4800.000 A119.716 (d: 18.794)
G1 X9.397 Y8.791 Z0.870 F4800.000 A119.732 (d: 0.4085)
G1 X-9.397 Y8.791 Z0.870 F4800.000 A120.458 (d: 18.794)
G1 X-9.397 Y9.199 Z0.870 F4800.000 A120.473 (d: 0.4085)
G1 X9.397 Y9.199 Z0.870 F4800.000 A121.199 (d: 18.794)
G1 F798.000 A120.699 (snort)

G1 X9.397 Y-9.183 Z0.870 F6000.000 (move into position)
G1 F798.000 A121.199 (squirt)
G1 X-9.397 Y-9.183 Z0.870 F4800.000 A121.925 (d: 18.794)
G1 F798.000 A121.425 (snort)

(Slice 3, 1 Extruder)
G1 Z1.140 F500.000 (move Z)
(insets: 2)
G1 X9.784 Y9.784 Z1.140 F6000.000 (move into position)
G1 F798.000 A121.925 (squirt)
G1 X9.784 Y-9.784 Z1.140 F4800.000 A122.680 (d: 19.568)
G1 X-9.784 Y-9.784 Z1.140 F4800.000 A123.436 (d: 19.568)
G1 X-9.784 Y9.784 Z1.140 F4800.000 A124.191 (d: 19.568)
G1 X9.784 Y9.784 Z1.140 F4800.000 A124.947 (d: 19.568)
G1 F798.000 A124.447 (snort)

G1 X9.397 Y9.397 Z1.140 F6000.000 (move into position)
G1 F798.000 A124.947 (squirt)
G1 X9.397 Y-9.397 Z1.140 F4800.000 A125.673 (d: 18.794)
G1 X-9.397 Y-9.397 Z1.140 F4800.000 A126.398 (d: 18.794)
G1 X-9.397 Y9.397 Z1.140 F4800.000 A127.124 (d: 18.794)
G1 X9.397 Y9.397 Z1.140 F4800.000 A127.850 (d: 18.794)
G1 F798.000 A127.350 (snort)

(infills: 1)
G1 X-8.774 Y-9.397 Z1.140 F6000.000 (move into position)
G1 F798.000 A127.850 (squirt)
G1 X-8.774 Y9.397 Z1.140 F4800.000 A128.576 (d: 18.794)
G1 X-8.366 Y9.397 Z1.140 F4800.000 A128.591 (d: 0.4085)
G1 X-8.366 Y-9.397 Z1.140 F4800.000 A129.317 (d: 18.794)
G1 X-7.957 Y-9.397 Z1.140 F4800.000 A129.333 (d: 0.4085)
G1 X-7.957 Y9.397 Z1.140 F4800.000 A130.059 (d: 18.794)
G1 X-7.549 Y9.397 Z1.140 F4800.000 A130.074 (d: 0.4085)
G1 X-7.549 Y-9.397 Z1.140 F4800.000 A130.800 (d: 18.794)
G1 X-7.140 Y-9.397 Z1.140 F4800.000 A130.816 (d: 0.4085)
G1 X-7.140 Y9.397 Z1.140 F4800.000 A131.542 (d: 18.794)
G1 X-6.732 Y9.397 Z1.140 F4800.000 A131.557 (d: 0.4085)
G1 X-6.732 Y-9.397 Z1.140 F4800.000 A132.283 (d: 18.794)
G1 X-6.323 Y-9.397 Z1.140 F4800.000 A132.299 (d: 0.4085)
G1 X-6.323 Y9.397 Z1.140 F4800.000 A133.024 (d: 18.794)
G1 X-5.915 Y9.397 Z1.140 F4800.000 A133.040 (d: 0.4085)
G1 X-5.915 Y-9.397 Z1.140 F4800.000 A133.766 (d: 18.794)
G1 X-5.506 Y-9.397 Z1.140 F4800.000 A133.782 (d: 0.4085)
G1 X-5.506 Y9.397 Z1.140 F4800.000 A134.507 (d: 18.794)
G1 X-5.098 Y9.397 Z1.140 F4800.000 A134.523 (d: 0.4085)
G1 X-5.098 Y-9.397 Z1.140 F4800.000 A135.249 (d: 18.794)
G1 X-4.689 Y-9.397 Z1.140 F4800.000 A135.265 (d: 0.4085)
G1 X-4.689 Y9.397 Z1.140 F4800.000 A135.990 (d: 18.794)
G1 X-4.281 Y9.397 Z1.140 F4800.000 A136.006 (d: 0.4085)
G1 X-4.281 Y-9.397 Z1.140 F4800.000 A136.732 (d: 18.794)
G1 X-3.872 Y-9.397 Z1.140 F4800.000 A136.748 (d: 0.4085)
G1 X-3.872 Y9.397 Z1.140 F4800.000 A137.473 (d: 18.794)
G1 X-3.464 Y9.397 Z1.140 F4800.000 A137.489 (d: 0.4085)
G1 X-3.464 Y-9.397 Z1.140 F4800.000 A138.215 (d: 18.794)
G1 X-3.055 Y-9.397 Z1.140 F4800.000 A138.231 (d: 0.4085)
G1 X-3.055 Y9.397 Z1.140 F4800.000 A138.956 (d: 18.794)
G1 X-2.647 Y9.397 Z1.140 F4800.000 A138.972 (d: 0.4085)
G1 X-2.647 Y-9.397 Z1.140 F4800.000 A139.698 (d: 18.794)
G1 X-2.238 Y-9.397 Z1.140 F4800.000 A139.714 (d: 0.4085)
G1 X-2.238 Y9.397 Z1.140 F4800.000 A140.439 (d: 18.794)
G1 X-1.830 Y9.397 Z1.140 F4800.000 A140.455 (d: 0.4085)
G1 X-1.830 Y-9.397 Z1.140 F4800.000 A141.181 (d: 18.794)
G1 X-1.421 Y-9.397 Z1.140 F4800.000 A141.197 (d: 0.4085)
G1 X-1.421 Y9.397 Z1.140 F4800.000 A141.922 (d: 18.794)
G1 X-1.013 Y9.397 Z1.140 F4800.000 A141.938 (d: 0.4085)
G1 X-1.013 Y-9.397 Z1.140 F4800.000 A142.664 (d: 18.794)
G1 X-0.604 Y-9.397 Z1.140 F4800.000 A142.679 (d: 0.4085)
G1 X-0.604 Y9.397 Z1.140 F4800.000 A143.405 (d: 18.794)
G1 X-0.196 Y9.397 Z1.140 F4800.000 A143.421 (d: 0.4085)
G1 X-0.196 Y-9.397 Z1.140 F4800.000 A144.147 (d: 18.794)
G1 X0.213 Y-9.397 Z1.140 F4800.000 A144.162 (d: 0.4085)
G1 X0.213 Y9.397 Z1.140 F4800.000 A144.888 (d: 18.794)
G1 X0.621 Y9.397 Z1.140 F4800.000 A144.904 (d: 0.4085)
G1 X0.621 Y-9.397 Z1.140 F4800.000 A145.630 (d: 18.794)
G1 X1.030 Y-9.397 Z1.140 F4800.000 A145.645 (d: 0.4085)
G1 X1.030 Y9.397 Z1.140 F4800.000 A146.371 (d: 18.794)
G1 X1.438 Y9.397 Z1.140 F4800.000 A146.387 (d: 0.4085)
G1 X1.438 Y-9.397 Z1.140 F4800.000 A147.113 (d: 18.794)
G1 X1.847 Y-9.397 Z1.140 F4800.000 A147.128 (d: 0.4085)
G1 X1.847 Y9.397 Z1.140 F4800.000 A147.854 (d: 18.794)
G1 X2.255 Y9.397 Z1.140 F4800.000 A147.870 (d: 0.4085)
G1 X2.255 Y-9.397 Z1.140 F4800.000 A148.596 (d: 18.794)
G1 X2.664 Y-9.397 Z1.140 F4800.000 A148.611 (d: 0.4085)
G1 X2.664 Y9.397 Z1.140 F4800.000 A149.337 (d: 18.794)
G1 X3.072 Y9.397 Z1.140 F4800.000 A149.353 (d: 0.4085)
G1 X3.072 Y-9.397 Z1.140 F4800.000 A150.078 (d: 18.794)
G1 X3.481 Y-9.397 Z1.140 F4800.000 A150.094 (d: 0.4085)
G1 X3.481 Y9.397 Z1.140 F4800.000 A150.820 (d: 18.794)
G1 X3.889 Y9.397 Z1.140 F4800.000 A150.836 (d: 0.4085)
G1 X3.889 Y-9.397 Z1.140 F4800.000 A151.561 (d: 18.794)
G1 X4.298 Y-9.397 Z1.140 F4800.000 A151.577 (d: 0.4085)
G1 X4.298 Y9.397 Z1.140 F4800.000 A152.303 (d: 18.794)
G1 X4.706 Y9.397 Z1.140 F4800.000 A152.319 (d: 0.4085)
G1 X4.706 Y-9.397 Z1.140 F4800.000 A153.044 (d: 18.794)
G1 X5.115 Y-9.397 Z1.140 F4800.000 A153.060 (d: 0.4085)
G1 X5.115 Y9.397 Z1.140 F4800.000 A153.786 (d: 18.794)
G1 X5.523 Y9.397 Z1.140 F4800.000 A153.802 (d: 0.4085)
G1 X5.523 Y-9.397 Z1.140 F4800.000 A154.527 (d: 18.794)
G1 X5.932 Y-9.397 Z1.140 F4800.000 A154.543 (d: 0.4085)
G1 X5.932 Y9.397 Z1.140 F4800.000 A155.269 (d: 18.794)
G1 X6.340 Y9.397 Z1.140 F4800.000 A155.285 (d: 0.4085)
G1 X6.340 Y-9.397 Z1.140 F4800.000 A156.010 (d: 18.794)
G1 X6.749 Y-9.397 Z1.140 F4800.000 A156.026 (d: 0.4085)
G1 X6.749 Y9.397 Z1.140 F4800.000 A156.752 (d: 18.794)
G1 X7.157 Y9.397 Z1.140 F4800.000 A156.768 (d: 0.4085)
G1 X7.157 Y-9.397 Z1.140 F4800.000 A157.493 (d: 18.794)
G1 X7.566 Y-9.397 Z1.140 F4800.000 A157.509 (d: 0.4085)
G1 X7.566 Y9.397 Z1.140 F4800.000 A158.235 (d: 18.794)
G1 X7.974 Y9.397 Z1.140 F4800.000 A158.251 (d: 0.4085)
G1 X7.974 Y-9.397 Z1.140 F4800.000 A158.976 (d: 18.794)
G1 X8.383 Y-9.397 Z1.140 F4800.000 A158.992 (d: 0.4085)
G1 X8.383 Y9.397 Z1.140 F4800.000 A159.718 (d: 18.794)
G1 X8.791 Y9.397 Z1.140 F4800.000 A159.733 (d: 0.4085)
G1 X8.791 Y-9.397 Z1.140 F4800.000 A160.459 (d: 18.794)
G1 X9.200 Y-9.397 Z1.140 F4800.000 A160.475 (d: 0.4085)
G1 X9.200 Y9.397 Z1.140 F4800.000 A161.201 (d: 18.794)
G1 X-9.183 Y9.397 Z1.140 F4800.000 A161.910 (d: 18.3825)
G1 X-9.183 Y-9.397 Z1.140 F4800.000 A162.636 (d: 18.794)
G1 F798.000 A162.136 (snort)

(Slice 4, 1 Extruder)
G1 Z1.410 F500.000 (move Z)
(insets: 2)
G1 X9.784 Y9.784 Z1.410 F6000.000 (move into position)
G1 F798.000 A162.636 (squirt)
G1 X9.784 Y-9.784 Z1.410 F4800.000 A163.392 (d: 19.568)
G1 X-9.784 Y-9.784 Z1.410 F4800.000 A164.147 (d: 19.568)
G1 X-9.784 Y9.784 Z1.410 F4800.000 A164.903 (d: 19.568)
G1 X9.784 Y9.784 Z1.410 F4800.000 A165.659 (d: 19.568)
G1 F798.000 A165.159 (snort)

G1 X9.397 Y9.397 Z1.410 F6000.000 (move into position)
G1 F798.000 A165.659 (squirt)
G1 X9.397 Y-9.397 Z1.410 F4800.000 A166.384 (d: 18.794)
G1 X-9.397 Y-9.397 Z1.410 F4800.000 A167.110 (d: 18.794)
G1 X-9.397 Y9.397 Z1.410 F4800.000 A167.836 (d: 18.794)
G1 X9.397 Y9.397 Z1.410 F4800.000 A168.561 (d: 18.794)
G1 F798.000 A168.061 (snort)

(infills: 2)
G1 X-9.397 Y-8.775 Z1.410 F6000.000 (move into position)
G1 F798.000 A168.561 (squirt)
G1 X9.397 Y-8.775 Z1.410 F4800.000 A169.287 (d: 18.794)
G1 X9.397 Y-8.366 Z1.410 F4800.000 A169.303 (d: 0.4085)
G1 X-9.397 Y-8.366 Z1.410 F4800.000 A170.029 (d: 18.794)
G1 X-9.397 Y-7.958 Z1.410 F4800.000 A170.044 (d: 0.4085)
G1 X9.397 Y-7.958 Z1.410 F4800.000 A170.770 (d: 18.794)
G1 X9.397 Y-7.549 Z1.410 F4800.000 A170.786 (d: 0.4085)
G1 X-9.397 Y-7.549 Z1.410 F4800.000 A171.512 (d: 18.794)
G1 X-9.397 Y-7.141 Z1.410 F4800.000 A171.527 (d: 0.4085)
G1 X9.397 Y-7.141 Z1.410 F4800.000 A172.253 (d: 18.794)
G1 X9.397 Y-6.732 Z1.410 F4800.000 A172.269 (d: 0.4085)
G1 X-9.397 Y-6.732 Z1.410 F4800.000 A172.994 (d: 18.794)
G1 X-9.397 Y-6.324 Z1.410 F4800.000 A173.010 (d: 0.4085)
G1 X9.397 Y-6.324 Z1.410 F4800.000 A173.736 (d: 18.794)
G1 X9.397 Y-5.915 Z1.410 F4800.000 A173.752 (d: 0.4085)
G1 X-9.397 Y-5.915 Z1.410 F4800.000 A174.477 (d: 18.794)
G1 X-9.397 Y-5.507 Z1.410 F4800.000 A174.493 (d: 0.4085)
G1 X9.397 Y-5.507 Z1.410 F4800.000 A175.219 (d: 18.794)
G1 X9.397 Y-5.098 Z1.410 F4800.000 A175.235 (d: 0.4085)
G1 X-9.397 Y-5.098 Z1.410 F4800.000 A175.960 (d: 18.794)
G1 X-9.397 Y-4.690 Z1.410 F4800.000 A175.976 (d: 0.4085)
G1 X9.397 Y-4.690 Z1.410 F4800.000 A176.702 (d: 18.794)
G1 X9.397 Y-4.281 Z1.410 F4800.000 A176.718 (d: 0.4085)
G1 X-9.397 Y-4.281 Z1.410 F4800.000 A177.443 (d: 18.794)
G1 X-9.397 Y-3.873 Z1.410 F4800.000 A177.459 (d: 0.4085)
G1 X9.397 Y-3.873 Z1.410 F4800.000 A178.185 (d: 18.794)
G1 X9.397 Y-3.464 Z1.410 F4800.000 A178.201 (d: 0.4085)
G1 X-9.397 Y-3.464 Z1.410 F4800.000 A178.926 (d: 18.794)
G1 X-9.397 Y-3.056 Z1.410 F4800.000 A178.942 (d: 0.4085)
G1 X9.397 Y-3.056 Z1.410 F4800.000 A179.668 (d: 18.794)
G1 X9.397 Y-2.647 Z1.410 F4800.000 A179.684 (d: 0.4085)
G1 X-9.397 Y-2.647 Z1.410 F4800.000 A180.409 (d: 18.794)
G1 X-9.397 Y-2.239 Z1.410 F4800.000 A180.425 (d: 0.4085)
G1 X9.397 Y-2.239 Z1.410 F4800.000 A181.151 (d: 18.794)
G1 X9.397 Y-1.830 Z1.410 F4800.000 A181.167 (d: 0.4085)
G1 X-9.397 Y-1.830 Z1.410 F4800.000 A181.892 (d: 18.794)
G1 X-9.397 Y-1.422 Z1.410 F4800.000 A181.908 (d: 0.4085)
G1 X9.397 Y-1.422 Z1.410 F4800.000 A182.634 (d: 18.794)
G1 X9.397 Y-1.013 Z1.410 F4800.000 A182.649 (d: 0.4085)
G1 X-9.397 Y-1.013 Z1.410 F4800.000 A183.375 (d: 18.794)
G1 X-9.397 Y-0.605 Z1.410 F4800.000 A183.391 (d: 0.4085)
G1 X9.397 Y-0.605 Z1.410 F4800.000 A184.117 (d: 18.794)
G1 X9.397 Y-0.196 Z1.410 F4800.000 A184.132 (d: 0.4085)
G1 X-9.397 Y-0.196 Z1.410 F4800.000 A184.858 (d: 18.794)
G1 X-9.397 Y0.212 Z1.410 F4800.000 A184.874 (d: 0.4085)
G1 X9.397 Y0.212 Z1.410 F4800.000 A185.600 (d: 18.794)
G1 X9.397 Y0.621 Z1.410 F4800.000 A185.615 (d: 0.4085)
G1 X-9.397 Y0.621 Z1.410 F4800.000 A186.341 (d: 18.794)
G1 X-9.397 Y1.029 Z1.410 F4800.000 A186.357 (d: 0.4085)
G1 X9.397 Y1.029 Z1.410 F4800.000 A187.083 (d: 18.794)
G1 X9.397 Y1.438 Z1.410 F4800.000 A187.098 (d: 0.4085)
G1 X-9.397 Y1.438 Z1.410 F4800.000 A187.824 (d: 18.794)
G1 X-9.397 Y1.846 Z1.410 F4800.000 A187.840 (d: 0.4085)
G1 X9.397 Y1.846 Z1.410 F4800.000 A188.566 (d: 18.794)
G1 X9.397 Y2.255 Z1.410 F4800.000 A188.581 (d: 0.4085)
G1 X-9.397 Y2.255 Z1.410 F4800.000 A189.307 (d: 18.794)
G1 X-9.397 Y2.663 Z1.410 F4800.000 A189.323 (d: 0.4085)
G1 X9.397 Y2.663 Z1.410 F4800.000 A190.049 (d: 18.794)
G1 X9.397 Y3.072 Z1.410 F4800.000 A190.064 (d: 0.4085)
G1 X-9.397 Y3.072 Z1.410 F4800.000 A190.790 (d: 18.794)
G1 X-9.397 Y3.480 Z1.410 F4800.000 A190.806 (d: 0.4085)
G1 X9.397 Y3.480 Z1.410 F4800.000 A191.531 (d: 18.794)
G1 X9.397 Y3.889 Z1.410 F4800.000 A191.547 (d: 0.4085)
G1 X-9.397 Y3.889 Z1.410 F4800.000 A192.273 (d: 18.794)
G1 X-9.397 Y4.297 Z1.410 F4800.000 A192.289 (d: 0.4085)
G1 X9.397 Y4.297 Z1.410 F4800.000 A193.014 (d: 18.794)
G1 X9.397 Y4.706 Z1.410 F4800.000 A193.030 (d: 0.4085)
G1 X-9.397 Y4.706 Z1.410 F4800.000 A193.756 (d: 18.794)
G1 X-9.397 Y5.114 Z1.410 F4800.000 A193.772 (d: 0.4085)
G1 X9.397 Y5.114 Z1.410 F4800.000 A194.497 (d: 18.794)
G1 X9.397 Y5.523 Z1.410 F4800.000 A194.513 (d: 0.4085)
G1 X-9.397 Y5.523 Z1.410 F4800.000 A195.239 (d: 18.794)
G1 X-9.397 Y5.931 Z1.410 F4800.000 A195.255 (d: 0.4085)
G1 X9.397 Y5.931 Z1.410 F4800.000 A195.980 (d: 18.794)
G1 X9.397 Y6.340 Z1.410 F4800.000 A195.996 (d: 0.4085)
G1 X-9.397 Y6.340 Z1.410 F4800.000 A196.722 (d: 18.794)
G1 X-9.397 Y6.748 Z1.410 F4800.000 A196.738 (d: 0.4085)
G1 X9.397 Y6.748 Z1.410 F4800.000 A197.463 (d: 18.794)
G1 X9.397 Y7.157 Z1.410 F4800.000 A197.479 (d: 0.4085)
G1 X-9.397 Y7.157 Z1.410 F4800.000 A198.205 (d: 18.794)
G1 X-9.397 Y7.565 Z1.410 F4800.000 A198.221 (d: 0.4085)
G1 X9.397 Y7.565 Z1.410 F4800.000 A198.946 (d: 18.794)
G1 X9.397 Y7.974 Z1.410 F4800.000 A198.962 (d: 0.4085)
G1 X-9.397 Y7.974 Z1.410 F4800.000 A199.688 (d: 18.794)
G1 X-9.397 Y8.382 Z1.410 F4800.000 A199.704 (d: 0.4085)
G1 X9.397 Y8.382 Z1.410 F4800.000 A200.429 (d: 18.794)
G1 X9.397 Y8.791 Z1.410 F4800.000 A200.445 (d: 0.4085)
G1 X-9.397 Y8.791 Z1.410 F4800.000 A201.171 (d: 18.794)
G1 X-9.397 Y9.199 Z1.410 F4800.000 A201.186 (d: 0.4085)
G1 X9.397 Y9.199 Z1.410 F4800.000 A201.912 (d: 18.794)
G1 F798.000 A201.412 (snort)

G1 X9.397 Y-9.183 Z1.410 F6000.000 (move into position)
G1 F798.000 A201.912 (squirt)
G1 X-9.397 Y-9.183 Z1.410 F4800.000 A202.638 (d: 18.794)
G1 F798.000 A202.138 (snort)

(Slice 5, 1 Extruder)
G1 Z1.680 F500.000 (move Z)
(insets: 2)
G1 X9.784 Y9.784 Z1.680 F6000.000 (move into position)
G1 F798.000 A202.638 (squirt)
G1 X9.784 Y-9.784 Z1.680 F4800.000 A203.393 (d: 19.568)
G1 X-9.784 Y-9.784 Z1.680 F4800.000 A204.149 (d: 19.568)
G1 X-9.784 Y9.784 Z1.680 F4800.000 A204.905 (d: 19.568)
G1 X9.784 Y9.784 Z1.680 F4800.000 A205.660 (d: 19.568)
G1 F798.000 A205.160 (snort)

G1 X9.397 Y9.397 Z1.680 F6000.000 (move into position)
G1 F798.000 A205.660 (squirt)
G1 X9.397 Y-9.397 Z1.680 F4800.000 A206.386 (d: 18.794)
G1 X-9.397 Y-9.397 Z1.680 F4800.000 A207.112 (d: 18.794)
G1 X-9.397 Y9.397 Z1.680 F4800.000 A207.837 (d: 18.794)
G1 X9.397 Y9.397 Z1.680 F4800.000 A208.563 (d: 18.794)
G1 F798.000 A208.063 (snort)

(infills: 1)
G1 X-8.774 Y-9.397 Z1.680 F6000.000 (move into position)
G1 F798.000 A208.563 (squirt)
G1 X-8.774 Y9.397 Z1.680 F4800.000 A209.289 (d: 18.794)
G1 X-8.366 Y9.397 Z1.680 F4800.000 A209.305 (d: 0.4085)
G1 X-8.366 Y-9.397 Z1.680 F4800.000 A210.030 (d: 18.794)
G1 X-7.957 Y-9.397 Z1.680 F4800.000 A210.046 (d: 0.4085)
G1 X-7.957 Y9.397 Z1.680 F4800.000 A210.772 (d: 18.794)
G1 X-7.549 Y9.397 Z1.680 F4800.000 A210.788 (d: 0.4085)
G1 X-7.549 Y-9.397 Z1.680 F4800.000 A211.513 (d: 18.794)
G1 X-7.140 Y-9.397 Z1.680 F4800.000 A211.529 (d: 0.4085)
G1 X-7.140 Y9.397 Z1.680 F4800.000 A212.255 (d: 18.794)
G1 X-6.732 Y9.397 Z1.680 F4800.000 A212.270 (d: 0.4085)
G1 X-6.732 Y-9.397 Z1.680 F4800.000 A212.996 (d: 18.794)
G1 X-6.323 Y-9.397 Z1.680 F4800.000 A213.012 (d: 0.4085)
G1 X-6.323 Y9.397 Z1.680 F4800.000 A213.738 (d: 18.794)
G1 X-5.915 Y9.397 Z1.680 F4800.000 A213.753 (d: 0.4085)
G1 X-5.915 Y-9.397 Z1.680 F4800.000 A214.479 (d: 18.794)
G1 X-5.506 Y-9.397 Z1.680 F4800.000 A214.495 (d: 0.4085)
G1 X-5.506 Y9.397 Z1.680 F4800.000 A215.221 (d: 18.794)
G1 X-5.098 Y9.397 Z1.680 F4800.000 A215.236 (d: 0.4085)
G1 X-5.098 Y-9.397 Z1.680 F4800.000 A215.962 (d: 18.794)
G1 X-4.689 Y-9.397 Z1.680 F4800.000 A215.978 (d: 0.4085)
G1 X-4.689 Y9.397 Z1.680 F4800.000 A216.704 (d: 18.794)
G1 X-4.281 Y9.397 Z1.680 F4800.000 A216.719 (d: 0.4085)
G1 X-4.281 Y-9.397 Z1.680 F4800.000 A217.445 (d: 18.794)
G1 X-3.872 Y-9.397 Z1.680 F4800.000 A217.461 (d: 0.4085)
G1 X-3.872 Y9.397 Z1.680 F4800.000 A218.187 (d: 18.794)
G1 X-3.464 Y9.397 Z1.680 F4800.000 A218.202 (d: 0.4085)
G1 X-3.464 Y-9.397 Z1.680 F4800.000 A218.928 (d: 18.794)
G1 X-3.055 Y-9.397 Z1.680 F4800.000 A218.944 (d: 0.4085)
G1 X-3.055 Y9.397 Z1.680 F4800.000 A219.669 (d: 18.794)
G1 X-2.647 Y9.397 Z1.680 F4800.000 A219.685 (d: 0.4085)
G1 X-2.647 Y-9.397 Z1.680 F4800.000 A220.411 (d: 18.794)
G1 X-2.238 Y-9.397 Z1.680 F4800.000 A220.427 (d: 0.4085)
G1 X-2.238 Y9.397 Z1.680 F4800.000 A221.152 (d: 18.794)
G1 X-1.830 Y9.397 Z1.680 F4800.000 A221.168 (d: 0.4085)
G1 X-1.830 Y-9.397 Z1.680 F4800.000 A221.894 (d: 18.794)
G1 X-1.421 Y-9.397 Z1.680 F4800.000 A221.910 (d: 0.4085)
G1 X-1.421 Y9.397 Z1.680 F4800.000 A222.635 (d: 18.794)
G1 X-1.013 Y9.397 Z1.680 F4800.000 A222.651 (d: 0.4085)
G1 X-1.013 Y-9.397 Z1.680 F4800.000 A223.377 (d: 18.794)
G1 X-0.604 Y-9.397 Z1.680 F4800.000 A223.393 (d: 0.4085)
G1 X-0.604 Y9.397 Z1.680 F4800.000 A224.118 (d: 18.794)
G1 X-0.196 Y9.397 Z1.680 F4800.000 A224.134 (d: 0.4085)
G1 X-0.196 Y-9.397 Z1.680 F4800.000 A224.860 (d: 18.794)
G1 X0.213 Y-9.397 Z1.680 F4800.000 A224.876 (d: 0.4085)
G1 X0.213 Y9.397 Z1.680 F4800.000 A225.601 (d: 18.794)
G1 X0.621 Y9.397 Z1.680 F4800.000 A225.617 (d: 0.4085)
G1 X0.621 Y-9.397 Z1.680 F4800.000 A226.343 (d: 18.794)
G1 X1.030 Y-9.397 Z1.680 F4800.000 A226.359 (d: 0.4085)
G1 X1.030 Y9.397 Z1.680 F4800.000 A227.084 (d: 18.794)
G1 X1.438 Y9.397 Z1.680 F4800.000 A227.100 (d: 0.4085)
G1 X1.438 Y-9.397 Z1.680 F4800.000 A227.826 (d: 18.794)
G1 X1.847 Y-9.397 Z1.680 F4800.000 A227.842 (d: 0.4085)
G1 X1.847 Y9.397 Z1.680 F4800.000 A228.567 (d: 18.794)
G1 X2.255 Y9.397 Z1.680 F4800.000 A228.583 (d: 0.4085)
G1 X2.255 Y-9.397 Z1.680 F4800.000 A229.309 (d: 18.794)
G1 X2.664 Y-9.397 Z1.680 F4800.000 A229.324 (d: 0.4085)
G1 X2.664 Y9.397 Z1.680 F4800.000 A230.050 (d: 18.794)
G1 X3.072 Y9.397 Z1.680 F4800.000 A230.066 (d: 0.4085)
G1 X3.072 Y-9.397 Z1.680 F4800.000 A230.792 (d: 18.794)
G1 X3.481 Y-9.397 Z1.680 F4800.000 A230.807 (d: 0.4085)
G1 X3.481 Y9.397 Z1.680 F4800.000 A231.533 (d: 18.794)
G1 X3.889 Y9.397 Z1.680 F4800.000 A231.549 (d: 0.4085)
G1 X3.889 Y-9.397 Z1.680 F4800.000 A232.275 (d: 18.794)
G1 X4.298 Y-9.397 Z1.680 F4800.000 A232.290 (d: 0.4085)
G1 X4.298 Y9.397 Z1.680 F4800.000 A233.016 (d: 18.794)
G1 X4.706 Y9.397 Z1.680 F4800.000 A233.032 (d: 0.4085)
G1 X4.706 Y-9.397 Z1.680 F4800.000 A233.758 (d: 18.794)
G1 X5.115 Y-9.397 Z1.680 F4800.000 A233.773 (d: 0.4085)
G1 X5.115 Y9.397 Z1.680 F4800.000 A234.499 (d: 18.794)
G1 X5.523 Y9.397 Z1.680 F4800.000 A234.515 (d: 0.4085)
G1 X5.523 Y-9.397 Z1.680 F4800.000 A235.241 (d: 18.794)
G1 X5.932 Y-9.397 Z1.680 F4800.000 A235.256 (d: 0.4085)
G1 X5.932 Y9.397 Z1.680 F4800.000 A235.982 (d: 18.794)
G1 X6.340 Y9.397 Z1.680 F4800.000 A235.998 (d: 0.4085)
G1 X6.340 Y-9.397 Z1.680 F4800.000 A236.724 (d: 18.794)
G1 X6.749 Y-9.397 Z1.680 F4800.000 A236.739 (d: 0.4085)
G1 X6.749 Y9.397 Z1.680 F4800.000 A237.465 (d: 18.794)
G1 X7.157 Y9.397 Z1.680 F4800.000 A237.481 (d: 0.4085)
G1 X7.157 Y-9.397 Z1.680 F4800.000 A238.206 (d: 18.794)
G1 X7.566 Y-9.397 Z1.680 F4800.000 A238.222 (d: 0.4085)
G1 X7.566 Y9.397 Z1.680 F4800.000 A238.948 (d: 18.794)
G1 X7.974 Y9.397 Z1.680 F4800.000 A238.964 (d: 0.4085)
G1 X7.974 Y-9.397 Z1.680 F4800.000 A239.689 (d: 18.794)
G1 X8.383 Y-9.397 Z1.680 F4800.000 A239.705 (d: 0.4085)
G1 X8.383 Y9.397 Z1.680 F4800.000 A240.431 (d: 18.794)
G1 X8.791 Y9.397 Z1.680 F4800.000 A240.447 (d: 0.4085)
G1 X8.791 Y-9.397 Z1.680 F4800.000 A241.172 (d: 18.794)
G1 X9.200 Y-9.397 Z1.680 F4800.000 A241.188 (d: 0.4085)
G1 X9.200 Y9.397 Z1.680 F4800.000 A241.914 (d: 18.794)
G1 X-9.183 Y9.397 Z1.680 F4800.000 A242.624 (d: 18.3825)
G1 X-9.183 Y-9.397 Z1.680 F4800.000 A243.349 (d: 18.794)
G1 F798.000 A242.849 (snort)

(Slice 6, 1 Extruder)
G1 Z1.950 F500.000 (move Z)
(insets: 2)
G1 X9.784 Y9.784 Z1.950 F6000.000 (move into position)
G1 F798.000 A243.349 (squirt)
G1 X9.784 Y-9.784 Z1.950 F4800.000 A244.105 (d: 19.568)
G1 X-9.784 Y-9.784 Z1.950 F4800.000 A244.861 (d: 19.568)
G1 X-9.784 Y9.784 Z1.950 F4800.000 A245.616 (d: 19.568)
G1 X9.784 Y9.784 Z1.950 F4800.000 A246.372 (d: 19.568)
G1 F798.000 A245.872 (snort)

G1 X9.397 Y9.397 Z1.950 F6000.000 (move into position)
G1 F798.000 A246.372 (squirt)
G1 X9.397 Y-9.397 Z1.950 F4800.000 A247.097 (d: 18.794)
G1 X-9.397 Y-9.397 Z1.950 F4800.000 A247.823 (d: 18.794)
G1 X-9.397 Y9.397 Z1.950 F4800.000 A248.549 (d: 18.794)
G1 X9.397 Y9.397 Z1.950 F4800.000 A249.275 (d: 18.794)
G1 F798.000 A248.775 (snort)

(infills: 2)
G1 X-9.397 Y-2.647 Z1.950 F6000.000 (move into position)
G1 F798.000 A249.275 (squirt)
G1 X9.397 Y-2.647 Z1.950 F4800.000 A250.000 (d: 18.794)
G1 X9.397 Y1.029 Z1.950 F4800.000 A250.142 (d: 3.6765)
G1 X-9.397 Y1.029 Z1.950 F4800.000 A250.868 (d: 18.794)
G1 X-9.397 Y4.706 Z1.950 F4800.000 A251.010 (d: 3.6765)
G1 X9.397 Y4.706 Z1.950 F4800.000 A251.736 (d: 18.794)
G1 X9.397 Y8.382 Z1.950 F4800.000 A251.878 (d: 3.6765)
G1 X-9.397 Y8.382 Z1.950 F4800.000 A252.603 (d: 18.794)
G1 F798.000 A252.103 (snort)

G1 X9.397 Y-6.324 Z1.950 F6000.000 (move into position)
G1 F798.000 A252.603 (squirt)
G1 X-9.397 Y-6.324 Z1.950 F4800.000 A253.329 (d: 18.794)
G1 F798.000 A252.829 (snort)

(Slice 7, 1 Extruder)
G1 Z2.220 F500.000 (move Z)
(insets: 2)
G1 X9.784 Y9.784 Z2.220 F6000.000 (move into position)
G1 F798.000 A253.329 (squirt)
G1 X9.784 Y-9.784 Z2.220 F4800.000 A254.085 (d: 19.568)
G1 X-9.784 Y-9.784 Z2.220 F4800.000 A254.840 (d: 19.568)
G1 X-9.784 Y9.784 Z2.220 F4800.000 A255.596 (d: 19.568)
G1 X9.784 Y9.784 Z2.220 F4800.000 A256.351 (d: 19.568)
G1 F798.000 A255.851 (snort)

G1 X9.397 Y9.397 Z2.220 F6000.000 (move into position)
G1 F798.000 A256.351 (squirt)
G1 X9.397 Y-9.397 Z2.220 F4800.000 A257.077 (d: 18.794)
G1 X-9.397 Y-9.397 Z2.220 F4800.000 A257.803 (d: 18.794)
G1 X-9.397 Y9.397 Z2.220 F4800.000 A258.528 (d: 18.794)
G1 X9.397 Y9.397 Z2.220 F4800.000 A259.254 (d: 18.794)
G1 F798.000 A258.754 (snort)

(infills: 2)
G1 X-2.647 Y-9.397 Z2.220 F6000.000 (move into position)
G1 F798.000 A259.254 (squirt)
G1 X-2.647 Y9.397 Z2.220 F4800.000 A259.980 (d: 18.794)
G1 X1.030 Y9.397 Z2.220 F4800.000 A260.122 (d: 3.6765)
G1 X1.030 Y-9.397 Z2.220 F4800.000 A260.848 (d: 18.794)
G1 X4.706 Y-9.397 Z2.220 F4800.000 A260.990 (d: 3.6765)
G1 X4.706 Y9.397 Z2.220 F4800.000 A261.715 (d: 18.794)
G1 X8.383 Y9.397 Z2.220 F4800.000 A261.857 (d: 3.6765)
G1 X8.383 Y-9.397 Z2.220 F4800.000 A262.583 (d: 18.794)
G1 F798.000 A262.083 (snort)

G1 X-6.323 Y9.397 Z2.220 F6000.000 (move into position)
G1 F798.000 A262.583 (squirt)
G1 X-6.323 Y-9.397 Z2.220 F4800.000 A263.309 (d: 18.794)
G1 F798.000 A262.809 (snort)

(Slice 8, 1 Extruder)
G1 Z2.490 F500.000 (move Z)
(insets: 2)
G1 X9.784 Y9.784 Z2.490 F6000.000 (move into position)
G1 F798.000 A263.309 (squirt)
G1 X9.784 Y-9.784 Z2.490 F4800.000 A264.064 (d: 19.568)
G1 X-9.784 Y-9.784 Z2.490 F4800.000 A264.820 (d: 19.568)
G1 X-9.784 Y9.784 Z2.490 F4800.000 A265.575 (d: 19.568)
G1 X9.784 Y9.784 Z2.490 F4800.000 A266.331 (d: 19.568)
G1 F798.000 A265.831 (snort)

G1 X9.397 Y9.397 Z2.490 F6000.000 (move into position)
G1 F798.000 A266.331 (squirt)
G1 X9.397 Y-9.397 Z2.490 F4800.000 A267.057 (d: 18.794)
G1 X-9.397 Y-9.397 Z2.490 F4800.000 A267.782 (d: 18.794)
G1 X-9.397 Y9.397 Z2.490 F4800.000 A268.508 (d: 18.794)
G1 X9.397 Y9.397 Z2.490 F4800.000 A269.234 (d: 18.794)
G1 F798.000 A268.734 (snort)

(infills: 2)
G1 X-9.397 Y-2.647 Z2.490 F6000.000 (move into position)
G1 F798.000 A269.234 (squirt)
G1 X9.397 Y-2.647 Z2.490 F4800.000 A269.959 (d: 18.794)
G1 X9.397 Y1.029 Z2.490 F4800.000 A270.101 (d: 3.6765)
G1 X-9.397 Y1.029 Z2.490 F4800.000 A270.827 (d: 18.794)
G1 X-9.397 Y4.706 Z2.490 F4800.000 A270.969 (d: 3.6765)
G1 X9.397 Y4.706 Z2.490 F4800.000 A271.695 (d: 18.794)
G1 X9.397 Y8.382 Z2.490 F4800.000 A271.837 (d: 3.6765)
G1 X-9.397 Y8.382 Z2.490 F4800.000 A272.562 (d: 18.794)
G1 F798.000 A272.062 (snort)

G1 X9.397 Y-6.324 Z2.490 F6000.000 (move into position)
G1 F798.000 A272.562 (squirt)
G1 X-9.397 Y-6.324 Z2.490 F4800.000 A273.288 (d: 18.794)
G1 F798.000 A272.788 (snort)

(Slice 9, 1 Extruder)
G1 Z2.760 F500.000 (move Z)
(insets: 2)
G1 X9.784 Y9.784 Z2.760 F6000.000 (move into position)
G1 F798.000 A273.288 (squirt)
G1 X9.784 Y-9.784 Z2.760 F4800.000 A274.044 (d: 19.568)
G1 X-9.784 Y-9.784 Z2.760 F4800.000 A274.799 (d: 19.568)
G1 X-9.784 Y9.784 Z2.760 F4800.000 A275.555 (d: 19.568)
G1 X9.784 Y9.784 Z2.760 F4800.000 A276.311 (d: 19.568)
G1 F798.000 A275.811 (snort)

G1 X9.397 Y9.397 Z2.760 F6000.000 (move into position)
G1 F798.000 A276.311 (squirt)
G1 X9.397 Y-9.397 Z2.760 F4800.000 A277.036 (d: 18.794)
G1 X-9.397 Y-9.397 Z2.760 F4800.000 A277.762 (d: 18.794)
G1 X-9.397 Y9.397 Z2.760 F4800.000 A278.488 (d: 18.794)
G1 X9.397 Y9.397 Z2.760 F4800.000 A279.213 (d: 18.794)
G1 F798.000 A278.713 (snort)

(infills: 2)
G1 X-2.647 Y-9.397 Z2.760 F6000.000 (move into position)
G1 F798.000 A279.213 (squirt)
G1 X-2.647 Y9.397 Z2.760 F4800.000 A279.939 (d: 18.794)
G1 F798.000 A279.439 (snort)

G1 X1.030 Y9.397 Z2.760 F6000.000 (move into position)
G1 F798.000 A279.939 (squirt)
G1 X1.030 Y-9.397 Z2.760 F4800.000 A280.665 (d: 18.794)
G1 X4.706 Y-9.397 Z2.760 F4800.000 A280.807 (d: 3.6765)
G1 X4.706 Y9.397 Z2.760 F4800.000 A281.532 (d: 18.794)
G1 X8.383 Y9.397 Z2.760 F4800.000 A281.674 (d: 3.6765)
G1 X8.383 Y-9.397 Z2.760 F4800.000 A282.400 (d: 18.794)
G1 X-6.323 Y9.397 Z2.760 F4800.000 A283.322 (d: 23.8638)
G1 X-6.323 Y-9.397 Z2.760 F4800.000 A284.047 (d: 18.794)
G1 F798.000 A283.547 (snort)

(Slice 10, 1 Extruder)
G1 Z3.030 F500.000 (move Z)
(insets: 2)
G1 X9.784 Y9.784 Z3.030 F6000.000 (move into position)
G1 F798.000 A284.047 (squirt)
G1 X9.784 Y-9.784 Z3.030 F4800.000 A284.803 (d: 19.568)
G1 X-9.784 Y-9.784 Z3.030 F4800.000 A285.559 (d: 19.568)
G1 X-9.784 Y9.784 Z3.030 F4800.000 A286.314 (d: 19.568)
G1 X9.784 Y9.784 Z3.030 F4800.000 A287.070 (d: 19.568)
G1 F798.000 A286.570 (snort)

G1 X9.397 Y9.397 Z3.030 F6000.000 (move into position)
G1 F798.000 A287.070 (squirt)
G1 X9.397 Y-9.397 Z3.030 F4800.000 A287.795 (d: 18.794)
G1 X-9.397 Y-9.397 Z3.030 F4800.000 A288.521 (d: 18.794)
G1 X-9.397 Y9.397 Z3.030 F4800.000 A289.247 (d: 18.794)
G1 X9.397 Y9.397 Z3.030 F4800.000 A289.973 (d: 18.794)
G1 F798.000 A289.473 (snort)

(infills: 1)
G1 X-9.397 Y-2.647 Z3.030 F6000.000 (move into position)
G1 F798.000 A289.973 (squirt)
G1 X9.397 Y-2.647 Z3.030 F4800.000 A290.698 (d: 18.794)
G1 X9.397 Y1.029 Z3.030 F4800.000 A290.840 (d: 3.6765)
G1 X-9.397 Y1.029 Z3.030 F4800.000 A291.566 (d: 18.794)
G1 X-9.397 Y4.706 Z3.030 F4800.000 A291.708 (d: 3.6765)
G1 X9.397 Y4.706 Z3.030 F4800.000 A292.434 (d: 18.794)
G1 X9.397 Y8.382 Z3.030 F4800.000 A292.576 (d: 3.6765)
G1 X-9.397 Y8.382 Z3.030 F4800.000 A293.301 (d: 18.794)
G1 X9.397 Y-6.324 Z3.030 F4800.000 A294.223 (d: 23.8638)
G1 X-9.397 Y-6.324 Z3.030 F4800.000 A294.948 (d: 18.794)
G1 F798.000 A294.448 (snort)

(Slice 11, 1 Extruder)
G1 Z3.300 F500.000 (move Z)
(insets: 2)
G1 X9.784 Y9.784 Z3.300 F6000.000 (move into position)
G1 F798.000 A294.948 (squirt)
G1 X9.784 Y-9.784 Z3.300 F4800.000 A295.704 (d: 19.568)
G1 X-9.784 Y-9.784 Z3.300 F4800.000 A296.460 (d: 19.568)
G1 X-9.784 Y9.784 Z3.300 F4800.000 A297.215 (d: 19.568)
G1 X9.784 Y9.784 Z3.300 F4800.000 A297.971 (d: 19.568)
G1 F798.000 A297.471 (snort)

G1 X9.397 Y9.397 Z3.300 F6000.000 (move into position)
G1 F798.000 A297.971 (squirt)
G1 X9.397 Y-9.397 Z3.300 F4800.000 A298.696 (d: 18.794)
G1 X-9.397 Y-9.397 Z3.300 F4800.000 A299.422 (d: 18.794)
G1 X-9.397 Y9.397 Z3.300 F4800.000 A300.148 (d: 18.794)
G1 X9.397 Y9.397 Z3.300 F4800.000 A300.874 (d: 18.794)
G1 F798.000 A300.374 (snort)

(infills: 2)
G1 X-2.647 Y-9.397 Z3.300 F6000.000 (move into position)
G1 F798.000 A300.874 (squirt)
G1 X-2.647 Y9.397 Z3.300 F4800.000 A301.599 (d: 18.794)
G1 X1.030 Y9.397 Z3.300 F4800.000 A301.741 (d: 3.6765)
G1 X1.030 Y-9.397 Z3.300 F4800.000 A302.467 (d: 18.794)
G1 X4.706 Y-9.397 Z3.300 F4800.000 A302.609 (d: 3.6765)
G1 X4.706 Y9.397 Z3.300 F4800.000 A303.335 (d: 18.794)
G1 X8.383 Y9.397 Z3.300 F4800.000 A303.477 (d: 3.6765)
G1 X8.383 Y-9.397 Z3.300 F4800.000 A304.202 (d: 18.794)
G1 F798.000 A303.702 (snort)

G1 X-6.323 Y9.397 Z3.300 F6000.000 (move into position)
G1 F798.000 A304.202 (squirt)
G1 X-6.323 Y-9.397 Z3.300 F4800.000 A304.928 (d: 18.794)
G1 F798.000 A304.428 (snort)

(Slice 12, 1 Extruder)
G1 Z3.570 F500.000 (move Z)
(insets: 2)
G1 X9.784 Y9.784 Z3.570 F6000.000 (move into position)
G1 F798.000 A304.928 (squirt)
G1 X9.784 Y-9.784 Z3.570 F4800.000 A305.684 (d: 19.568)
G1 X-9.784 Y-9.784 Z3.570 F4800.000 A306.439 (d: 19.568)
G1 X-9.784 Y9.784 Z3.570 F4800.000 A307.195 (d: 19.568)
G1 X9.784 Y9.784 Z3.570 F4800.000 A307.950 (d: 19.568)
G1 F798.000 A307.450 (snort)

G1 X9.397 Y9.397 Z3.570 F6000.000 (move into position)
G1 F798.000 A307.950 (squirt)
G1 X9.397 Y-9.397 Z3.570 F4800.000 A308.676 (d: 18.794)
G1 X-9.397 Y-9.397 Z3.570 F4800.000 A309.402 (d: 18.794)
G1 X-9.397 Y9.397 Z3.570 F4800.000 A310.127 (d: 18.794)
G1 X9.397 Y9.397 Z3.570 F4800.000 A310.853 (d: 18.794)
G1 F798.000 A310.353 (snort)

(infills: 2)
G1 X-9.397 Y-2.647 Z3.570 F6000.000 (move into position)
G1 F798.000 A310.853 (squirt)
G1 X9.397 Y-2.647 Z3.570 F4800.000 A311.579 (d: 18.794)
G1 X9.397 Y1.029 Z3.570 F4800.000 A311.721 (d: 3.6765)
G1 X-9.397 Y1.029 Z3.570 F4800.000 A312.447 (d: 18.794)
G1 X-9.397 Y4.706 Z3.570 F4800.000 A312.589 (d: 3.6765)
G1 X9.397 Y4.706 Z3.570 F4800.000 A313.314 (d: 18.794)
G1 X9.397 Y8.382 Z3.570 F4800.000 A313.456 (d: 3.6765)
G1 X-9.397 Y8.382 Z3.570 F4800.000 A314.182 (d: 18.794)
G1 F798.000 A313.682 (snort)

G1 X9.397 Y-6.324 Z3.570 F6000.000 (move into position)
G1 F798.000 A314.182 (squirt)
G1 X-9.397 Y-6.324 Z3.570 F4800.000 A314.908 (d: 18.794)
G1 F798.000 A314.408 (snort)

(Slice 13, 1 Extruder)
G1 Z3.840 F500.000 (move Z)
(insets: 2)
G1 X9.784 Y9.784 Z3.840 F6000.000 (move into position)
G1 F798.000 A314.908 (squirt)
G1 X9.784 Y-9.784 Z3.840 F4800.000 A315.663 (d: 19.568)
G1 X-9.784 Y-9.784 Z3.840 F4800.000 A316.419 (d: 19.568)
G1 X-9.784 Y9.784 Z3.840 F4800.000 A317.174 (d: 19.568)
G1 X9.784 Y9.784 Z3.840 F4800.000 A317.930 (d: 19.568)
G1 F798.000 A317.430 (snort)

G1 X9.397 Y9.397 Z3.840 F6000.000 (move into position)
G1 F798.000 A317.930 (squirt)
G1 X9.397 Y-9.397 Z3.840 F4800.000 A318.656 (d: 18.794)
G1 X-9.397 Y-9.397 Z3.840 F4800.000 A319.381 (d: 18.794)
G1 X-9.397 Y9.397 Z3.840 F4800.000 A320.107 (d: 18.794)
G1 X9.397 Y9.397 Z3.840 F4800.000 A320.833 (d: 18.794)
G1 F798.000 A320.333 (snort)

(infills: 2)
G1 X-2.647 Y-9.397 Z3.840 F6000.000 (move into position)
G1 F798.000 A320.833 (squirt)
G1 X-2.647 Y9.397 Z3.840 F4800.000 A321.559 (d: 18.794)
G1 F798.000 A321.059 (snort)

G1 X1.030 Y9.397 Z3.840 F6000.000 (move into position)
G1 F798.000 A321.559 (squirt)
G1 X1.030 Y-9.397 Z3.840 F4800.000 A322.284 (d: 18.794)
G1 X4.706 Y-9.397 Z3.840 F4800.000 A322.426 (d: 3.6765)
G1 X4.706 Y9.397 Z3.840 F4800.000 A323.152 (d: 18.794)
G1 X8.383 Y9.397 Z3.840 F4800.000 A323.294 (d: 3.6765)
G1 X8.383 Y-9.397 Z3.840 F4800.000 A324.020 (d: 18.794)
G1 X-6.323 Y9.397 Z3.840 F4800.000 A324.941 (d: 23.8638)
G1 X-6.323 Y-9.397 Z3.840 F4800.000 A325.667 (d: 18.794)
G1 F798.000 A325.167 (snort)

(Slice 14, 1 Extruder)
G1 Z4.110 F500.000 (move Z)
(insets: 2)
G1 X9.784 Y9.784 Z4.110 F6000.000 (move into position)
G1 F798.000 A325.667 (squirt)
G1 X9.784 Y-9.784 Z4.110 F4800.000 A326.422 (d: 19.568)
G1 X-9.784 Y-9.784 Z4.110 F4800.000 A327.178 (d: 19.568)
G1 X-9.784 Y9.784 Z4.110 F4800.000 A327.934 (d: 19.568)
G1 X9.784 Y9.784 Z4.110 F4800.000 A328.689 (d: 19.568)
G1 F798.000 A328.189 (snort)

G1 X9.397 Y9.397 Z4.110 F6000.000 (move into position)
G1 F798.000 A328.689 (squirt)
G1 X9.397 Y-9.397 Z4.110 F4800.000 A329.415 (d: 18.794)
G1 X-9.397 Y-9.397 Z4.110 F4800.000 A330.141 (d: 18.794)
G1 X-9.397 Y9.397 Z4.110 F4800.000 A330.866 (d: 18.794)
G1 X9.397 Y9.397 Z4.110 F4800.000 A331.592 (d: 18.794)
G1 F798.000 A331.092 (snort)

(infills: 1)
G1 X-9.397 Y-2.647 Z4.110 F6000.000 (move into position)
G1 F798.000 A331.592 (squirt)
G1 X9.397 Y-2.647 Z4.110 F4800.000 A332.318 (d: 18.794)
G1 X9.397 Y1.029 Z4.110 F4800.000 A332.460 (d: 3.6765)
G1 X-9.397 Y1.029 Z4.110 F4800.000 A333.185 (d: 18.794)
G1 X-9.397 Y4.706 Z4.110 F4800.000 A333.327 (d: 3.6765)
G1 X9.397 Y4.706 Z4.110 F4800.000 A334.053 (d: 18.794)
G1 X9.397 Y8.382 Z4.110 F4800.000 A334.195 (d: 3.6765)
G1 X-9.397 Y8.382 Z4.110 F4800.000 A334.921 (d: 18.794)
G1 X9.397 Y-6.324 Z4.110 F4800.000 A335.842 (d: 23.8638)
G1 X-9.397 Y-6.324 Z4.110 F4800.000 A336.568 (d: 18.794)
G1 F798.000 A336.068 (snort)

(Slice 15, 1 Extruder)
G1 Z4.380 F500.000 (move Z)
(insets: 2)
G1 X9.784 Y9.784 Z4.380 F6000.000 (move into position)
G1 F798.000 A336.568 (squirt)
G1 X9.784 Y-9.784 Z4.380 F4800.000 A337.323 (d: 19.568)
G1 X-9.784 Y-9.784 Z4.380 F4800.000 A338.079 (d: 19.568)
G1 X-9.784 Y9.784 Z4.380 F4800.000 A338.835 (d: 19.568)
G1 X9.784 Y9.784 Z4.380 F4800.000 A339.590 (d: 19.568)
G1 F798.000 A339.090 (snort)

G1 X9.397 Y9.397 Z4.380 F6000.000 (move into position)
G1 F798.000 A339.590 (squirt)
G1 X9.397 Y-9.397 Z4.380 F4800.000 A340.316 (d: 18.794)
G1 X-9.397 Y-9.397 Z4.380 F4800.000 A341.042 (d: 18.794)
G1 X-9.397 Y9.397 Z4.380 F4800.000 A341.767 (d: 18.794)
G1 X9.397 Y9.397 Z4.380 F4800.000 A342.493 (d: 18.794)
G1 F798.000 A341.993 (snort)

(infills: 2)
G1 X-2.647 Y-9.397 Z4.380 F6000.000 (move into position)
G1 F798.000 A342.493 (squirt)
G1 X-2.647 Y9.397 Z4.380 F4800.000 A343.219 (d: 18.794)
G1 F798.000 A342.719 (snort)

G1 X1.030 Y9.397 Z4.380 F6000.000 (move into position)
G1 F798.000 A343.219 (squirt)
G1 X1.030 Y-9.397 Z4.380 F4800.000 A343.944 (d: 18.794)
G1 X4.706 Y-9.397 Z4.380 F4800.000 A344.086 (d: 3.6765)
G1 X4.706 Y9.397 Z4.380 F4800.000 A344.812 (d: 18.794)
G1 X8.383 Y9.397 Z4.380 F4800.000 A344.954 (d: 3.6765)
G1 X8.383 Y-9.397 Z4.380 F4800.000 A345.680 (d: 18.794)
G1 X-6.323 Y9.397 Z4.380 F4800.000 A346.601 (d: 23.8638)
G1 X-6.323 Y-9.397 Z4.380 F4800.000 A347.327 (d: 18.794)
G1 F798.000 A346.827 (snort)

(Slice 16, 1 Extruder)
G1 Z4.650 F500.000 (move Z)
(insets: 2)
G1 X9.784 Y9.784 Z4.650 F6000.000 (move into position)
G1 F798.000 A347.327 (squirt)
G1 X9.784 Y-9.784 Z4.650 F4800.000 A348.083 (d: 19.568)
G1 X-9.784 Y-9.784 Z4.650 F4800.000 A348.838 (d: 19.568)
G1 X-9.784 Y9.784 Z4.650 F4800.000 A349.594 (d: 19.568)
G1 X9.784 Y9.784 Z4.650 F4800.000 A350.349 (d: 19.568)
G1 F798.000 A349.849 (snort)

G1 X9.397 Y9.397 Z4.650 F6000.000 (move into position)
G1 F798.000 A350.349 (squirt)
G1 X9.397 Y-9.397 Z4.650 F4800.000 A351.075 (d: 18.794)
G1 X-9.397 Y-9.397 Z4.650 F4800.000 A351.801 (d: 18.794)
G1 X-9.397 Y9.397 Z4.650 F4800.000 A352.526 (d: 18.794)
G1 X9.397 Y9.397 Z4.650 F4800.000 A353.252 (d: 18.794)
G1 F798.000 A352.752 (snort)

(infills: 1)
G1 X-9.397 Y-2.647 Z4.650 F6000.000 (move into position)
G1 F798.000 A353.252 (squirt)
G1 X9.397 Y-2.647 Z4.650 F4800.000 A353.978 (d: 18.794)
G1 X9.397 Y1.029 Z4.650 F4800.000 A354.120 (d: 3.6765)
G1 X-9.397 Y1.029 Z4.650 F4800.000 A354.845 (d: 18.794)
G1 X-9.397 Y4.706 Z4.650 F4800.000 A354.987 (d: 3.6765)
G1 X9.397 Y4.706 Z4.650 F4800.000 A355.713 (d: 18.794)
G1 X9.397 Y8.382 Z4.650 F4800.000 A355.855 (d: 3.6765)
G1 X-9.397 Y8.382 Z4.650 F4800.000 A356.581 (d: 18.794)
G1 X9.397 Y-6.324 Z4.650 F4800.000 A357.502 (d: 23.8638)
G1 X-9.397 Y-6.324 Z4.650 F4800.000 A358.228 (d: 18.794)
G1 F798.000 A357.728 (snort)

(Slice 17, 1 Extruder)
G1 Z4.920 F500.000 (move Z)
(insets: 2)
G1 X9.784 Y9.784 Z4.920 F6000.000 (move into position)
G1 F798.000 A358.228 (squirt)
G1 X9.784 Y-9.784 Z4.920 F4800.000 A358.984 (d: 19.568)
G1 X-9.784 Y-9.784 Z4.920 F4800.000 A359.739 (d: 19.568)
G1 X-9.784 Y9.784 Z4.920 F4800.000 A360.495 (d: 19.568)
G1 X9.784 Y9.784 Z4.920 F4800.000 A361.250 (d: 19.568)
G1 F798.000 A360.750 (snort)

G1 X9.397 Y9.397 Z4.920 F6000.000 (move into position)
G1 F798.000 A361.250 (squirt)
G1 X9.397 Y-9.397 Z4.920 F4800.000 A361.976 (d: 18.794)
G1 X-9.397 Y-9.397 Z4.920 F4800.000 A362.702 (d: 18.794)
G1 X-9.397 Y9.397 Z4.920 F4800.000 A363.427 (d: 18.794)
G1 X9.397 Y9.397 Z4.920 F4800.000 A364.153 (d: 18.794)
G1 F798.000 A363.653 (snort)

(infills: 2)
G1 X-2.647 Y-9.397 Z4.920 F6000.000 (move into position)
G1 F798.000 A364.153 (squirt)
G1 X-2.647 Y9.397 Z4.920 F4800.000 A364.879 (d: 18.794)
G1 F798.000 A364.379 (snort)

G1 X1.030 Y9.397 Z4.920 F6000.000 (move into position)
G1 F798.000 A364.879 (squirt)
G1 X1.030 Y-9.397 Z4.920 F4800.000 A365.605 (d: 18.794)
G1 X4.706 Y-9.397 Z4.920 F4800.000 A365.747 (d: 3.6765)
G1 X4.706 Y9.397 Z4.920 F4800.000 A366.472 (d: 18.794)
G1 X8.383 Y9.397 Z4.920 F4800.000 A366.614 (d: 3.6765)
G1 X8.383 Y-9.397 Z4.920 F4800.000 A367.340 (d: 18.794)
G1 X-6.323 Y9.397 Z4.920 F4800.000 A368.261 (d: 23.8638)
G1 X-6.323 Y-9.397 Z4.920 F4800.000 A368.987 (d: 18.794)
G1 F798.000 A368.487 (snort)

(Slice 18, 1 Extruder)
G1 Z5.190 F500.000 (move Z)
(insets: 2)
G1 X9.784 Y9.784 Z5.190 F6000.000 (move into position)
G1 F798.000 A368.987 (squirt)
G1 X9.784 Y-9.784 Z5.190 F4800.000 A369.743 (d: 19.568)
G1 X-9.784 Y-9.784 Z5.190 F4800.000 A370.498 (d: 19.568)
G1 X-9.784 Y9.784 Z5.190 F4800.000 A371.254 (d: 19.568)
G1 X9.784 Y9.784 Z5.190 F4800.000 A372.009 (d: 19.568)
G1 F798.000 A371.509 (snort)

G1 X9.397 Y9.397 Z5.190 F6000.000 (move into position)
G1 F798.000 A372.009 (squirt)
G1 X9.397 Y-9.397 Z5.190 F4800.000 A372.735 (d: 18.794)
G1 X-9.397 Y-9.397 Z5.190 F4800.000 A373.461 (d: 18.794)
G1 X-9.397 Y9.397 Z5.190 F4800.000 A374.187 (d: 18.794)
G1 X9.397 Y9.397 Z5.190 F4800.000 A374.912 (d: 18.794)
G1 F798.000 A374.412 (snort)

(infills: 1)
G1 X-9.397 Y-2.647 Z5.190 F6000.000 (move into position)
G1 F798.000 A374.912 (squirt)
G1 X9.397 Y-2.647 Z5.190 F4800.000 A375.638 (d: 18.794)
G1 X9.397 Y1.029 Z5.190 F4800.000 A375.780 (d: 3.6765)
G1 X-9.397 Y1.029 Z5.190 F4800.000 A376.506 (d: 18.794)
G1 X-9.397 Y4.706 Z5.190 F4800.000 A376.648 (d: 3.6765)
G1 X9.397 Y4.706 Z5.190 F4800.000 A377.373 (d: 18.794)
G1 X9.397 Y8.382 Z5.190 F4800.000 A377.515 (d: 3.6765)
G1 X-9.397 Y8.382 Z5.190 F4800.000 A378.241 (d: 18.794)
G1 X9.397 Y-6.324 Z5.190 F4800.000 A379.162 (d: 23.8638)
G1 X-9.397 Y-6.324 Z5.190 F4800.000 A379.888 (d: 18.794)
G1 F798.000 A379.388 (snort)

(Slice 19, 1 Extruder)
G1 Z5.460 F500.000 (move Z)
(insets: 2)
G1 X9.784 Y9.784 Z5.460 F6000.000 (move into position)
G1 F798.000 A379.888 (squirt)
G1 X9.784 Y-9.784 Z5.460 F4800.000 A380.644 (d: 19.568)
G1 X-9.784 Y-9.784 Z5.460 F4800.000 A381.399 (d: 19.568)
G1 X-9.784 Y9.784 Z5.460 F4800.000 A382.155 (d: 19.568)
G1 X9.784 Y9.784 Z5.460 F4800.000 A382.911 (d: 19.568)
G1 F798.000 A382.411 (snort)

G1 X9.397 Y9.397 Z5.460 F6000.000 (move into position)
G1 F798.000 A382.911 (squirt)
G1 X9.397 Y-9.397 Z5.460 F4800.000 A383.636 (d: 18.794)
G1 X-9.397 Y-9.397 Z5.460 F4800.000 A384.362 (d: 18.794)
G1 X-9.397 Y9.397 Z5.460 F4800.000 A385.088 (d: 18.794)
G1 X9.397 Y9.397 Z5.460 F4800.000 A385.813 (d: 18.794)
G1 F798.000 A385.313 (snort)

(infills: 2)
G1 X-2.647 Y-9.397 Z5.460 F6000.000 (move into position)
G1 F798.000 A385.813 (squirt)
G1 X-2.647 Y9.397 Z5.460 F4800.000 A386.539 (d: 18.794)
G1 F798.000 A386.039 (snort)

G1 X1.030 Y9.397 Z5.460 F6000.000 (move into position)
G1 F798.000 A386.539 (squirt)
G1 X1.030 Y-9.397 Z5.460 F4800.000 A387.265 (d: 18.794)
G1 X4.706 Y-9.397 Z5.460 F4800.000 A387.407 (d: 3.6765)
G1 X4.706 Y9.397 Z5.460 F4800.000 A388.132 (d: 18.794)
G1 X8.383 Y9.397 Z5.460 F4800.000 A388.274 (d: 3.6765)
G1 X8.383 Y-9.397 Z5.460 F4800.000 A389.000 (d: 18.794)
G1 X-6.323 Y9.397 Z5.460 F4800.000 A389.922 (d: 23.8638)
G1 X-6.323 Y-9.397 Z5.460 F4800.000 A390.647 (d: 18.794)
G1 F798.000 A390.147 (snort)

(Slice 20, 1 Extruder)
G1 Z5.730 F500.000 (move Z)
(insets: 2)
G1 X9.784 Y9.784 Z5.730 F6000.000 (move into position)
G1 F798.000 A390.647 (squirt)
G1 X9.784 Y-9.784 Z5.730 F4800.000 A391.403 (d: 19.568)
G1 X-9.784 Y-9.784 Z5.730 F4800.000 A392.158 (d: 19.568)
G1 X-9.784 Y9.784 Z5.730 F4800.000 A392.914 (d: 19.568)
G1 X9.784 Y9.784 Z5.730 F4800.000 A393.670 (d: 19.568)
G1 F798.000 A393.170 (snort)

G1 X9.397 Y9.397 Z5.730 F6000.000 (move into position)
G1 F798.000 A393.670 (squirt)
G1 X9.397 Y-9.397 Z5.730 F4800.000 A394.395 (d: 18.794)
G1 X-9.397 Y-9.397 Z5.730 F4800.000 A395.121 (d: 18.794)
G1 X-9.397 Y9.397 Z5.730 F4800.000 A395.847 (d: 18.794)
G1 X9.397 Y9.397 Z5.730 F4800.000 A396.572 (d: 18.794)
G1 F798.000 A396.072 (snort)

(infills: 1)
G1 X-9.397 Y-2.647 Z5.730 F6000.000 (move into position)
G1 F798.000 A396.572 (squirt)
G1 X9.397 Y-2.647 Z5.730 F4800.000 A397.298 (d: 18.794)
G1 X9.397 Y1.029 Z5.730 F4800.000 A397.440 (d: 3.6765)
G1 X-9.397 Y1.029 Z5.730 F4800.000 A398.166 (d: 18.794)
G1 X-9.397 Y4.706 Z5.730 F4800.000 A398.308 (d: 3.6765)
G1 X9.397 Y4.706 Z5.730 F4800.000 A399.034 (d: 18.794)
G1 X9.397 Y8.382 Z5.730 F4800.000 A399.176 (d: 3.6765)
G1 X-9.397 Y8.382 Z5.730 F4800.000 A399.901 (d: 18.794)
G1 X9.397 Y-6.324 Z5.730 F4800.000 A400.823 (d: 23.8638)
G1 X-9.397 Y-6.324 Z5.730 F4800.000 A401.548 (d: 18.794)
G1 F798.000 A401.048 (snort)

(Slice 21, 1 Extruder)
G1 Z6.000 F500.000 (move Z)
(insets: 2)
G1 X9.784 Y9.784 Z6.000 F6000.000 (move into position)
G1 F798.000 A401.548 (squirt)
G1 X9.784 Y-9.784 Z6.000 F4800.000 A402.304 (d: 19.568)
G1 X-9.784 Y-9.784 Z6.000 F4800.000 A403.060 (d: 19.568)
G1 X-9.784 Y9.784 Z6.000 F4800.000 A403.815 (d: 19.568)
G1 X9.784 Y9.784 Z6.000 F4800.000 A404.571 (d: 19.568)
G1 F798.000 A404.071 (snort)

G1 X9.397 Y9.397 Z6.000 F6000.000 (move into position)
G1 F798.000 A404.571 (squirt)
G1 X9.397 Y-9.397 Z6.000 F4800.000 A405.296 (d: 18.794)
G1 X-9.397 Y-9.397 Z6.000 F4800.000 A406.022 (d: 18.794)
G1 X-9.397 Y9.397 Z6.000 F4800.000 A406.748 (d: 18.794)
G1 X9.397 Y9.397 Z6.000 F4800.000 A407.474 (d: 18.794)
G1 F798.000 A406.974 (snort)

(infills: 2)
G1 X-2.647 Y-9.397 Z6.000 F6000.000 (move into position)
G1 F798.000 A407.474 (squirt)
G1 X-2.647 Y9.397 Z6.000 F4800.000 A408.199 (d: 18.794)
G1 F798.000 A407.699 (snort)

G1 X1.030 Y9.397 Z6.000 F6000.000 (move into position)
G1 F798.000 A408.199 (squirt)
G1 X1.030 Y-9.397 Z6.000 F4800.000 A408.925 (d: 18.794)
G1 X4.706 Y-9.397 Z6.000 F4800.000 A409.067 (d: 3.6765)
G1 X4.706 Y9.397 Z6.000 F4800.000 A409.793 (d: 18.794)
G1 X8.383 Y9.397 Z6.000 F4800.000 A409.935 (d: 3.6765)
G1 X8.383 Y-9.397 Z6.000 F4800.000 A410.660 (d: 18.794)
G1 X-6.323 Y9.397 Z6.000 F4800.000 A411.582 (d: 23.8638)
G1 X-6.323 Y-9.397 Z6.000 F4800.000 A412.307 (d: 18.794)
G1 F798.000 A411.807 (snort)

(Slice 22, 1 Extruder)
G1 Z6.270 F500.000 (move Z)
(insets: 2)
G1 X9.784 Y9.784 Z6.270 F6000.000 (move into position)
G1 F798.000 A412.307 (squirt)
G1 X9.784 Y-9.784 Z6.270 F4800.000 A413.063 (d: 19.568)
G1 X-9.784 Y-9.784 Z6.270 F4800.000 A413.819 (d: 19.568)
G1 X-9.784 Y9.784 Z6.270 F4800.000 A414.574 (d: 19.568)
G1 X9.784 Y9.784 Z6.270 F4800.000 A415.330 (d: 19.568)
G1 F798.000 A414.830 (snort)

G1 X9.397 Y9.397 Z6.270 F6000.000 (move into position)
G1 F798.000 A415.330 (squirt)
G1 X9.397 Y-9.397 Z6.270 F4800.000 A416.056 (d: 18.794)
G1 X-9.397 Y-9.397 Z6.270 F4800.000 A416.781 (d: 18.794)
G1 X-9.397 Y9.397 Z6.270 F4800.000 A417.507 (d: 18.794)
G1 X9.397 Y9.397 Z6.270 F4800.000 A418.233 (d: 18.794)
G1 F798.000 A417.733 (snort)

(infills: 2)
G1 X-9.397 Y-2.647 Z6.270 F6000.000 (move into position)
G1 F798.000 A418.233 (squirt)
G1 X9.397 Y-2.647 Z6.270 F4800.000 A418.958 (d: 18.794)
G1 X9.397 Y1.029 Z6.270 F4800.000 A419.100 (d: 3.6765)
G1 X-9.397 Y1.029 Z6.270 F4800.000 A419.826 (d: 18.794)
G1 X-9.397 Y4.706 Z6.270 F4800.000 A419.968 (d: 3.6765)
G1 X9.397 Y4.706 Z6.270 F4800.000 A420.694 (d: 18.794)
G1 X9.397 Y8.382 Z6.270 F4800.000 A420.836 (d: 3.6765)
G1 X-9.397 Y8.382 Z6.270 F4800.000 A421.561 (d: 18.794)
G1 F798.000 A421.061 (snort)

G1 X9.397 Y-6.324 Z6.270 F6000.000 (move into position)
G1 F798.000 A421.561 (squirt)
G1 X-9.397 Y-6.324 Z6.270 F4800.000 A422.287 (d: 18.794)
G1 F798.000 A421.787 (snort)

(Slice 23, 1 Extruder)
G1 Z6.540 F500.000 (move Z)
(insets: 2)
G1 X9.784 Y9.784 Z6.540 F6000.000 (move into position)
G1 F798.000 A422.287 (squirt)
G1 X9.784 Y-9.784 Z6.540 F4800.000 A423.043 (d: 19.568)
G1 X-9.784 Y-9.784 Z6.540 F4800.000 A423.798 (d: 19.568)
G1 X-9.784 Y9.784 Z6.540 F4800.000 A424.554 (d: 19.568)
G1 X9.784 Y9.784 Z6.540 F4800.000 A425.309 (d: 19.568)
G1 F798.000 A424.809 (snort)

G1 X9.397 Y9.397 Z6.540 F6000.000 (move into position)
G1 F798.000 A425.309 (squirt)
G1 X9.397 Y-9.397 Z6.540 F4800.000 A426.035 (d: 18.794)
G1 X-9.397 Y-9.397 Z6.540 F4800.000 A426.761 (d: 18.794)
G1 X-9.397 Y9.397 Z6.540 F4800.000 A427.487 (d: 18.794)
G1 X9.397 Y9.397 Z6.540 F4800.000 A428.212 (d: 18.794)
G1 F798.000 A427.712 (snort)

(infills: 2)
G1 X-2.647 Y-9.397 Z6.540 F6000.000 (move into position)
G1 F798.000 A428.212 (squirt)
G1 X-2.647 Y9.397 Z6.540 F4800.000 A428.938 (d: 18.794)
G1 X1.030 Y9.397 Z6.540 F4800.000 A429.080 (d: 3.6765)
G1 X1.030 Y-9.397 Z6.540 F4800.000 A429.806 (d: 18.794)
G1 X4.706 Y-9.397 Z6.540 F4800.000 A429.948 (d: 3.6765)
G1 X4.706 Y9.397 Z6.540 F4800.000 A430.673 (d: 18.794)
G1 X8.383 Y9.397 Z6.540 F4800.000 A430.815 (d: 3.6765)
G1 X8.383 Y-9.397 Z6.540 F4800.000 A431.541 (d: 18.794)
G1 F798.000 A431.041 (snort)

G1 X-6.323 Y9.397 Z6.540 F6000.000 (move into position)
G1 F798.000 A431.541 (squirt)
G1 X-6.323 Y-9.397 Z6.540 F4800.000 A432.267 (d: 18.794)
G1 F798.000 A431.767 (snort)

(Slice 24, 1 Extruder)
G1 Z6.810 F500.000 (move Z)
(insets: 2)
G1 X9.784 Y9.784 Z6.810 F6000.000 (move into position)
G1 F798.000 A432.267 (squirt)
G1 X9.784 Y-9.784 Z6.810 F4800.000 A433.022 (d: 19.568)
G1 X-9.784 Y-9.784 Z6.810 F4800.000 A433.778 (d: 19.568)
G1 X-9.784 Y9.784 Z6.810 F4800.000 A434.533 (d: 19.568)
G1 X9.784 Y9.784 Z6.810 F4800.000 A435.289 (d: 19.568)
G1 F798.000 A434.789 (snort)

G1 X9.397 Y9.397 Z6.810 F6000.000 (move into position)
G1 F798.000 A435.289 (squirt)
G1 X9.397 Y-9.397 Z6.810 F4800.000 A436.015 (d: 18.794)
G1 X-9.397 Y-9.397 Z6.810 F4800.000 A436.740 (d: 18.794)
G1 X-9.397 Y9.397 Z6.810 F4800.000 A437.466 (d: 18.794)
G1 X9.397 Y9.397 Z6.810 F4800.000 A438.192 (d: 18.794)
G1 F798.000 A437.692 (snort)

(infills: 2)
G1 X-9.397 Y-2.647 Z6.810 F6000.000 (move into position)
G1 F798.000 A438.192 (squirt)
G1 X9.397 Y-2.647 Z6.810 F4800.000 A438.918 (d: 18.794)
G1 X9.397 Y1.029 Z6.810 F4800.000 A439.060 (d: 3.6765)
G1 X-9.397 Y1.029 Z6.810 F4800.000 A439.785 (d: 18.794)
G1 X-9.397 Y4.706 Z6.810 F4800.000 A439.927 (d: 3.6765)
G1 X9.397 Y4.706 Z6.810 F4800.000 A440.653 (d: 18.794)
G1 X9.397 Y8.382 Z6.810 F4800.000 A440.795 (d: 3.6765)
G1 X-9.397 Y8.382 Z6.810 F4800.000 A441.521 (d: 18.794)
G1 F798.000 A441.021 (snort)

G1 X9.397 Y-6.324 Z6.810 F6000.000 (move into position)
G1 F798.000 A441.521 (squirt)
G1 X-9.397 Y-6.324 Z6.810 F4800.000 A442.246 (d: 18.794)
G1 F798.000 A441.746 (snort)

(Slice 25, 1 Extruder)
G1 Z7.080 F500.000 (move Z)
(insets: 2)
G1 X9.784 Y9.784 Z7.080 F6000.000 (move into position)
G1 F798.000 A442.246 (squirt)
G1 X9.784 Y-9.784 Z7.080 F4800.000 A443.002 (d: 19.568)
G1 X-9.784 Y-9.784 Z7.080 F4800.000 A443.758 (d: 19.568)
G1 X-9.784 Y9.784 Z7.080 F4800.000 A444.513 (d: 19.568)
G1 X9.784 Y9.784 Z7.080 F4800.000 A445.269 (d: 19.568)
G1 F798.000 A444.769 (snort)

G1 X9.397 Y9.397 Z7.080 F6000.000 (move into position)
G1 F798.000 A445.269 (squirt)
G1 X9.397 Y-9.397 Z7.080 F4800.000 A445.994 (d: 18.794)
G1 X-9.397 Y-9.397 Z7.080 F4800.000 A446.720 (d: 18.794)
G1 X-9.397 Y9.397 Z7.080 F4800.000 A447.446 (d: 18.794)
G1 X9.397 Y9.397 Z7.080 F4800.000 A448.172 (d: 18.794)
G1 F798.000 A447.672 (snort)

(infills: 2)
G1 X-2.647 Y-9.397 Z7.080 F6000.000 (move into position)
G1 F798.000 A448.172 (squirt)
G1 X-2.647 Y9.397 Z7.080 F4800.000 A448.897 (d: 18.794)
G1 X1.030 Y9.397 Z7.080 F4800.000 A449.039 (d: 3.6765)
G1 X1.030 Y-9.397 Z7.080 F4800.000 A449.765 (d: 18.794)
G1 X4.706 Y-9.397 Z7.080 F4800.000 A449.907 (d: 3.6765)
G1 X4.706 Y9.397 Z7.080 F4800.000 A450.633 (d: 18.794)
G1 X8.383 Y9.397 Z7.080 F4800.000 A450.775 (d: 3.6765)
G1 X8.383 Y-9.397 Z7.080 F4800.000 A451.500 (d: 18.794)
G1 F798.000 A451.000 (snort)

G1 X-6.323 Y9.397 Z7.080 F6000.000 (move into position)
G1 F798.000 A451.500 (squirt)
G1 X-6.323 Y-9.397 Z7.080 F4800.000 A452.226 (d: 18.794)
G1 F798.000 A451.726 (snort)

(Slice 26, 1 Extruder)
G1 Z7.350 F500.000 (move Z)
(insets: 2)
G1 X9.784 Y9.784 Z7.350 F6000.000 (move into position)
G1 F798.000 A452.226 (squirt)
G1 X9.784 Y-9.784 Z7.350 F4800.000 A452.982 (d: 19.568)
G1 X-9.784 Y-9.784 Z7.350 F4800.000 A453.737 (d: 19.568)
G1 X-9.784 Y9.784 Z7.350 F4800.000 A454.493 (d: 19.568)
G1 X9.784 Y9.784 Z7.350 F4800.000 A455.248 (d: 19.568)
G1 F798.000 A454.748 (snort)

G1 X9.397 Y9.397 Z7.350 F6000.000 (move into position)
G1 F798.000 A455.248 (squirt)
G1 X9.397 Y-9.397 Z7.350 F4800.000 A455.974 (d: 18.794)
G1 X-9.397 Y-9.397 Z7.350 F4800.000 A456.700 (d: 18.794)
G1 X-9.397 Y9.397 Z7.350 F4800.000 A457.425 (d: 18.794)
G1 X9.397 Y9.397 Z7.350 F4800.000 A458.151 (d: 18.794)
G1 F798.000 A457.651 (snort)

(infills: 2)
G1 X-9.397 Y-2.647 Z7.350 F6000.000 (move into position)
G1 F798.000 A458.151 (squirt)
G1 X9.397 Y-2.647 Z7.350 F4800.000 A458.877 (d: 18.794)
G1 X9.397 Y1.029 Z7.350 F4800.000 A459.019 (d: 3.6765)
G1 X-9.397 Y1.029 Z7.350 F4800.000 A459.744 (d: 18.794)
G1 X-9.397 Y4.706 Z7.350 F4800.000 A459.886 (d: 3.6765)
G1 X9.397 Y4.706 Z7.350 F4800.000 A460.612 (d: 18.794)
G1 X9.397 Y8.382 Z7.350 F4800.000 A460.754 (d: 3.6765)
G1 X-9.397 Y8.382 Z7.350 F4800.000 A461.480 (d: 18.794)
G1 F798.000 A460.980 (snort)

G1 X9.397 Y-6.324 Z7.350 F6000.000 (move into position)
G1 F798.000 A461.480 (squirt)
G1 X-9.397 Y-6.324 Z7.350 F4800.000 A462.206 (d: 18.794)
G1 F798.000 A461.706 (snort)

(Slice 27, 1 Extruder)
G1 Z7.620 F500.000 (move Z)
(insets: 2)
G1 X9.784 Y9.784 Z7.620 F6000.000 (move into position)
G1 F798.000 A462.206 (squirt)
G1 X9.784 Y-9.784 Z7.620 F4800.000 A462.961 (d: 19.568)
G1 X-9.784 Y-9.784 Z7.620 F4800.000 A463.717 (d: 19.568)
G1 X-9.784 Y9.784 Z7.620 F4800.000 A464.472 (d: 19.568)
G1 X9.784 Y9.784 Z7.620 F4800.000 A465.228 (d: 19.568)
G1 F798.000 A464.728 (snort)

G1 X9.397 Y9.397 Z7.620 F6000.000 (move into position)
G1 F798.000 A465.228 (squirt)
G1 X9.397 Y-9.397 Z7.620 F4800.000 A465.954 (d: 18.794)
G1 X-9.397 Y-9.397 Z7.620 F4800.000 A466.679 (d: 18.794)
G1 X-9.397 Y9.397 Z7.620 F4800.000 A467.405 (d: 18.794)
G1 X9.397 Y9.397 Z7.620 F4800.000 A468.131 (d: 18.794)
G1 F798.000 A467.631 (snort)

(infills: 2)
G1 X-2.647 Y-9.397 Z7.620 F6000.000 (move into position)
G1 F798.000 A468.131 (squirt)
G1 X-2.647 Y9.397 Z7.620 F4800.000 A468.856 (d: 18.794)
G1 X1.030 Y9.397 Z7.620 F4800.000 A468.998 (d: 3.6765)
G1 X1.030 Y-9.397 Z7.620 F4800.000 A469.724 (d: 18.794)
G1 X4.706 Y-9.397 Z7.620 F4800.000 A469.866 (d: 3.6765)
G1 X4.706 Y9.397 Z7.620 F4800.000 A470.592 (d: 18.794)
G1 X8.383 Y9.397 Z7.620 F4800.000 A470.734 (d: 3.6765)
G1 X8.383 Y-9.397 Z7.620 F4800.000 A471.459 (d: 18.794)
G1 F798.000 A470.959 (snort)

G1 X-6.323 Y9.397 Z7.620 F6000.000 (move into position)
G1 F798.000 A471.459 (squirt)
G1 X-6.323 Y-9.397 Z7.620 F4800.000 A472.185 (d: 18.794)
G1 F798.000 A471.685 (snort)

(Slice 28, 1 Extruder)
G1 Z7.890 F500.000 (move Z)
(insets: 2)
G1 X9.784 Y9.784 Z7.890 F6000.000 (move into position)
G1 F798.000 A472.185 (squirt)
G1 X9.784 Y-9.784 Z7.890 F4800.000 A472.941 (d: 19.568)
G1 X-9.784 Y-9.784 Z7.890 F4800.000 A473.696 (d: 19.568)
G1 X-9.784 Y9.784 Z7.890 F4800.000 A474.452 (d: 19.568)
G1 X9.784 Y9.784 Z7.890 F4800.000 A475.208 (d: 19.568)
G1 F798.000 A474.708 (snort)

G1 X9.397 Y9.397 Z7.890 F6000.000 (move into position)
G1 F798.000 A475.208 (squirt)
G1 X9.397 Y-9.397 Z7.890 F4800.000 A475.933 (d: 18.794)
G1 X-9.397 Y-9.397 Z7.890 F4800.000 A476.659 (d: 18.794)
G1 X-9.397 Y9.397 Z7.890 F4800.000 A477.385 (d: 18.794)
G1 X9.397 Y9.397 Z7.890 F4800.000 A478.110 (d: 18.794)
G1 F798.000 A477.610 (snort)

(infills: 2)
G1 X-9.397 Y-2.647 Z7.890 F6000.000 (move into position)
G1 F798.000 A478.110 (squirt)
G1 X9.397 Y-2.647 Z7.890 F4800.000 A478.836 (d: 18.794)
G1 X9.397 Y1.029 Z7.890 F4800.000 A478.978 (d: 3.6765)
G1 X-9.397 Y1.029 Z7.890 F4800.000 A479.704 (d: 18.794)
G1 X-9.397 Y4.706 Z7.890 F4800.000 A479.846 (d: 3.6765)
G1 X9.397 Y4.706 Z7.890 F4800.000 A480.571 (d: 18.794)
G1 X9.397 Y8.382 Z7.890 F4800.000 A480.713 (d: 3.6765)
G1 X-9.397 Y8.382 Z7.890 F4800.000 A481.439 (d: 18.794)
G1 F798.000 A480.939 (snort)

G1 X9.397 Y-6.324 Z7.890 F6000.000 (move into position)
G1 F798.000 A481.439 (squirt)
G1 X-9.397 Y-6.324 Z7.890 F4800.000 A482.165 (d: 18.794)
G1 F798.000 A481.665 (snort)

(Slice 29, 1 Extruder)
G1 Z8.160 F500.000 (move Z)
(insets: 2)
G1 X9.784 Y9.784 Z8.160 F6000.000 (move into position)
G1 F798.000 A482.165 (squirt)
G1 X9.784 Y-9.784 Z8.160 F4800.000 A482.920 (d: 19.568)
G1 X-9.784 Y-9.784 Z8.160 F4800.000 A483.676 (d: 19.568)
G1 X-9.784 Y9.784 Z8.160 F4800.000 A484.432 (d: 19.568)
G1 X9.784 Y9.784 Z8.160 F4800.000 A485.187 (d: 19.568)
G1 F798.000 A484.687 (snort)

G1 X9.397 Y9.397 Z8.160 F6000.000 (move into position)
G1 F798.000 A485.187 (squirt)
G1 X9.397 Y-9.397 Z8.160 F4800.000 A485.913 (d: 18.794)
G1 X-9.397 Y-9.397 Z8.160 F4800.000 A486.639 (d: 18.794)
G1 X-9.397 Y9.397 Z8.160 F4800.000 A487.364 (d: 18.794)
G1 X9.397 Y9.397 Z8.160 F4800.000 A488.090 (d: 18.794)
G1 F798.000 A487.590 (snort)

(infills: 2)
G1 X-2.647 Y-9.397 Z8.160 F6000.000 (move into position)
G1 F798.000 A488.090 (squirt)
G1 X-2.647 Y9.397 Z8.160 F4800.000 A488.816 (d: 18.794)
G1 X1.030 Y9.397 Z8.160 F4800.000 A488.958 (d: 3.6765)
G1 X1.030 Y-9.397 Z8.160 F4800.000 A489.683 (d: 18.794)
G1 X4.706 Y-9.397 Z8.160 F4800.000 A489.825 (d: 3.6765)
G1 X4.706 Y9.397 Z8.160 F4800.000 A490.551 (d: 18.794)
G1 X8.383 Y9.397 Z8.160 F4800.000 A490.693 (d: 3.6765)
G1 X8.383 Y-9.397 Z8.160 F4800.000 A491.419 (d: 18.794)
G1 F798.000 A490.919 (snort)

G1 X-6.323 Y9.397 Z8.160 F6000.000 (move into position)
G1 F798.000 A491.419 (squirt)
G1 X-6.323 Y-9.397 Z8.160 F4800.000 A492.144 (d: 18.794)
G1 F798.000 A491.644 (snort)

(Slice 30, 1 Extruder)
G1 Z8.430 F500.000 (move Z)
(insets: 2)
G1 X9.784 Y9.784 Z8.430 F6000.000 (move into position)
G1 F798.000 A492.144 (squirt)
G1 X9.784 Y-9.785 Z8.430 F4800.000 A492.900 (d: 19.569)
G1 X-6.859 Y-9.784 Z8.430 F4800.000 A493.543 (d: 16.643)
G1 X-9.784 Y-9.784 Z8.430 F4800.000 A493.656 (d: 2.925)
G1 X-9.784 Y9.784 Z8.430 F4800.000 A494.411 (d: 19.568)
G1 X9.784 Y9.784 Z8.430 F4800.000 A495.167 (d: 19.568)
G1 F798.000 A494.667 (snort)

G1 X9.397 Y9.397 Z8.430 F6000.000 (move into position)
G1 F798.000 A495.167 (squirt)
G1 X9.397 Y-9.398 Z8.430 F4800.000 A495.893 (d: 18.795)
G1 X-6.858 Y-9.397 Z8.430 F4800.000 A496.520 (d: 16.255)
G1 X-9.397 Y-9.397 Z8.430 F4800.000 A496.618 (d: 2.539)
G1 X-9.397 Y9.397 Z8.430 F4800.000 A497.344 (d: 18.794)
G1 X9.397 Y9.397 Z8.430 F4800.000 A498.070 (d: 18.794)
G1 F798.000 A497.570 (snort)

(infills: 2)
G1 X-9.397 Y-8.775 Z8.430 F6000.000 (move into position)
G1 F798.000 A498.070 (squirt)
G1 X9.397 Y-8.775 Z8.430 F4800.000 A498.795 (d: 18.794)
G1 X9.397 Y-8.366 Z8.430 F4800.000 A498.811 (d: 0.4085)
G1 X-9.397 Y-8.366 Z8.430 F4800.000 A499.537 (d: 18.794)
G1 X-9.397 Y-7.958 Z8.430 F4800.000 A499.553 (d: 0.4085)
G1 X9.397 Y-7.958 Z8.430 F4800.000 A500.278 (d: 18.794)
G1 X9.397 Y-7.549 Z8.430 F4800.000 A500.294 (d: 0.4085)
G1 X-9.397 Y-7.549 Z8.430 F4800.000 A501.020 (d: 18.794)
G1 X-9.397 Y-7.141 Z8.430 F4800.000 A501.036 (d: 0.4085)
G1 X9.397 Y-7.141 Z8.430 F4800.000 A501.761 (d: 18.794)
G1 X9.397 Y-6.732 Z8.430 F4800.000 A501.777 (d: 0.4085)
G1 X-9.397 Y-6.732 Z8.430 F4800.000 A502.503 (d: 18.794)
G1 X-9.397 Y-6.324 Z8.430 F4800.000 A502.519 (d: 0.4085)
G1 X9.397 Y-6.324 Z8.430 F4800.000 A503.244 (d: 18.794)
G1 X9.397 Y-5.915 Z8.430 F4800.000 A503.260 (d: 0.4085)
G1 X-9.397 Y-5.915 Z8.430 F4800.000 A503.986 (d: 18.794)
G1 X-9.397 Y-5.507 Z8.430 F4800.000 A504.001 (d: 0.4085)
G1 X9.397 Y-5.507 Z8.430 F4800.000 A504.727 (d: 18.794)
G1 X9.397 Y-5.098 Z8.430 F4800.000 A504.743 (d: 0.4085)
G1 X-9.397 Y-5.098 Z8.430 F4800.000 A505.469 (d: 18.794)
G1 X-9.397 Y-4.690 Z8.430 F4800.000 A505.484 (d: 0.4085)
G1 X9.397 Y-4.690 Z8.430 F4800.000 A506.210 (d: 18.794)
G1 X9.397 Y-4.281 Z8.430 F4800.000 A506.226 (d: 0.4085)
G1 X-9.397 Y-4.281 Z8.430 F4800.000 A506.952 (d: 18.794)
G1 X-9.397 Y-3.873 Z8.430 F4800.000 A506.967 (d: 0.4085)
G1 X9.397 Y-3.873 Z8.430 F4800.000 A507.693 (d: 18.794)
G1 X9.397 Y-3.464 Z8.430 F4800.000 A507.709 (d: 0.4085)
G1 X-9.397 Y-3.464 Z8.430 F4800.000 A508.435 (d: 18.794)
G1 X-9.397 Y-3.056 Z8.430 F4800.000 A508.450 (d: 0.4085)
G1 X9.397 Y-3.056 Z8.430 F4800.000 A509.176 (d: 18.794)
G1 X9.397 Y-2.647 Z8.430 F4800.000 A509.192 (d: 0.4085)
G1 X-9.397 Y-2.647 Z8.430 F4800.000 A509.918 (d: 18.794)
G1 X-9.397 Y-2.239 Z8.430 F4800.000 A509.933 (d: 0.4085)
G1 X9.397 Y-2.239 Z8.430 F4800.000 A510.659 (d: 18.794)
G1 X9.397 Y-1.830 Z8.430 F4800.000 A510.675 (d: 0.4085)
G1 X-9.397 Y-1.830 Z8.430 F4800.000 A511.400 (d: 18.794)
G1 X-9.397 Y-1.422 Z8.430 F4800.000 A511.416 (d: 0.4085)
G1 X9.397 Y-1.422 Z8.430 F4800.000 A512.142 (d: 18.794)
G1 X9.397 Y-1.013 Z8.430 F4800.000 A512.158 (d: 0.4085)
G1 X-9.397 Y-1.013 Z8.430 F4800.000 A512.883 (d: 18.794)
G1 X-9.397 Y-0.605 Z8.430 F4800.000 A512.899 (d: 0.4085)
G1 X9.397 Y-0.605 Z8.430 F4800.000 A513.625 (d: 18.794)
G1 X9.397 Y-0.196 Z8.430 F4800.000 A513.641 (d: 0.4085)
G1 X-9.397 Y-0.196 Z8.430 F4800.000 A514.366 (d: 18.794)
G1 X-9.397 Y0.212 Z8.430 F4800.000 A514.382 (d: 0.4085)
G1 X9.397 Y0.212 Z8.430 F4800.000 A515.108 (d: 18.794)
G1 X9.397 Y0.621 Z8.430 F4800.000 A515.124 (d: 0.4085)
G1 X-9.397 Y0.621 Z8.430 F4800.000 A515.849 (d: 18.794)
G1 X-9.397 Y1.029 Z8.430 F4800.000 A515.865 (d: 0.4085)
G1 X9.397 Y1.029 Z8.430 F4800.000 A516.591 (d: 18.794)
G1 X9.397 Y1.438 Z8.430 F4800.000 A516.607 (d: 0.4085)
G1 X-9.397 Y1.438 Z8.430 F4800.000 A517.332 (d: 18.794)
G1 X-9.397 Y1.846 Z8.430 F4800.000 A517.348 (d: 0.4085)
G1 X9.397 Y1.846 Z8.430 F4800.000 A518.074 (d: 18.794)
G1 X9.397 Y2.255 Z8.430 F4800.000 A518.090 (d: 0.4085)
G1 X-9.397 Y2.255 Z8.430 F4800.000 A518.815 (d: 18.794)
G1 X-9.397 Y2.663 Z8.430 F4800.000 A518.831 (d: 0.4085)
G1 X9.397 Y2.663 Z8.430 F4800.000 A519.557 (d: 18.794)
G1 X9.397 Y3.072 Z8.430 F4800.000 A519.573 (d: 0.4085)
G1 X-9.397 Y3.072 Z8.430 F4800.000 A520.298 (d: 18.794)
G1 X-9.397 Y3.480 Z8.430 F4800.000 A520.314 (d: 0.4085)
G1 X9.397 Y3.480 Z8.430 F4800.000 A521.040 (d: 18.794)
G1 X9.397 Y3.889 Z8.430 F4800.000 A521.055 (d: 0.4085)
G1 X-9.397 Y3.889 Z8.430 F4800.000 A521.781 (d: 18.794)
G1 X-9.397 Y4.297 Z8.430 F4800.000 A521.797 (d: 0.4085)
G1 X9.397 Y4.297 Z8.430 F4800.000 A522.523 (d: 18.794)
G1 X9.397 Y4.706 Z8.430 F4800.000 A522.538 (d: 0.4085)
G1 X-9.397 Y4.706 Z8.430 F4800.000 A523.264 (d: 18.794)
G1 X-9.397 Y5.114 Z8.430 F4800.000 A523.280 (d: 0.4085)
G1 X9.397 Y5.114 Z8.430 F4800.000 A524.006 (d: 18.794)
G1 X9.397 Y5.523 Z8.430 F4800.000 A524.021 (d: 0.4085)
G1 X-9.397 Y5.523 Z8.430 F4800.000 A524.747 (d: 18.794)
G1 X-9.397 Y5.931 Z8.430 F4800.000 A524.763 (d: 0.4085)
G1 X9.397 Y5.931 Z8.430 F4800.000 A525.489 (d: 18.794)
G1 X9.397 Y6.340 Z8.430 F4800.000 A525.504 (d: 0.4085)
G1 X-9.397 Y6.340 Z8.430 F4800.000 A526.230 (d: 18.794)
G1 X-9.397 Y6.748 Z8.430 F4800.000 A526.246 (d: 0.4085)
G1 X9.397 Y6.748 Z8.430 F4800.000 A526.972 (d: 18.794)
G1 X9.397 Y7.157 Z8.430 F4800.000 A526.987 (d: 0.4085)
G1 X-9.397 Y7.157 Z8.430 F4800.000 A527.713 (d: 18.794)
G1 X-9.397 Y7.565 Z8.430 F4800.000 A527.729 (d: 0.4085)
G1 X9.397 Y7.565 Z8.430 F4800.000 A528.455 (d: 18.794)
G1 X9.397 Y7.974 Z8.430 F4800.000 A528.470 (d: 0.4085)
G1 X-9.397 Y7.974 Z8.430 F4800.000 A529.196 (d: 18.794)
G1 X-9.397 Y8.382 Z8.430 F4800.000 A529.212 (d: 0.4085)
G1 X9.397 Y8.382 Z8.430 F4800.000 A529.937 (d: 18.794)
G1 X9.397 Y8.791 Z8.430 F4800.000 A529.953 (d: 0.4085)
G1 X-9.397 Y8.791 Z8.430 F4800.000 A530.679 (d: 18.794)
G1 X-9.397 Y9.199 Z8.430 F4800.000 A530.695 (d: 0.4085)
G1 X9.397 Y9.199 Z8.430 F4800.000 A531.420 (d: 18.794)
G1 F798.000 A530.920 (snort)

G1 X9.397 Y-9.183 Z8.430 F6000.000 (move into position)
G1 F798.000 A531.420 (squirt)
G1 X-9.397 Y-9.183 Z8.430 F4800.000 A532.146 (d: 18.794)
G1 F798.000 A531.646 (snort)

(Slice 31, 1 Extruder)
G1 Z8.700 F500.000 (move Z)
(insets: 2)
G1 X9.784 Y9.784 Z8.700 F6000.000 (move into position)
G1 F798.000 A532.146 (squirt)
G1 X9.784 Y-9.785 Z8.700 F4800.000 A532.902 (d: 19.569)
G1 X-7.399 Y-9.784 Z8.700 F4800.000 A533.565 (d: 17.183)
G1 X-9.784 Y-9.784 Z8.700 F4800.000 A533.657 (d: 2.385)
G1 X-9.784 Y9.784 Z8.700 F4800.000 A534.413 (d: 19.568)
G1 X9.784 Y9.784 Z8.700 F4800.000 A535.169 (d: 19.568)
G1 F798.000 A534.669 (snort)

G1 X9.397 Y9.397 Z8.700 F6000.000 (move into position)
G1 F798.000 A535.169 (squirt)
G1 X9.397 Y-9.398 Z8.700 F4800.000 A535.894 (d: 18.795)
G1 X-7.399 Y-9.397 Z8.700 F4800.000 A536.543 (d: 16.796)
G1 X-9.397 Y-9.397 Z8.700 F4800.000 A536.620 (d: 1.998)
G1 X-9.397 Y9.397 Z8.700 F4800.000 A537.346 (d: 18.794)
G1 X9.397 Y9.397 Z8.700 F4800.000 A538.071 (d: 18.794)
G1 F798.000 A537.571 (snort)

(infills: 3)
G1 X-8.774 Y-9.397 Z8.700 F6000.000 (move into position)
G1 F798.000 A538.071 (squirt)
G1 X-8.774 Y9.397 Z8.700 F4800.000 A538.797 (d: 18.794)
G1 X-8.366 Y9.397 Z8.700 F4800.000 A538.813 (d: 0.4085)
G1 X-8.366 Y-9.397 Z8.700 F4800.000 A539.539 (d: 18.794)
G1 X-7.957 Y-9.397 Z8.700 F4800.000 A539.554 (d: 0.4085)
G1 X-7.957 Y9.397 Z8.700 F4800.000 A540.280 (d: 18.794)
G1 X-7.549 Y9.397 Z8.700 F4800.000 A540.296 (d: 0.4085)
G1 X-7.549 Y-9.397 Z8.700 F4800.000 A541.022 (d: 18.794)
G1 X-7.140 Y-9.397 Z8.700 F4800.000 A541.037 (d: 0.4085)
G1 X-7.140 Y9.397 Z8.700 F4800.000 A541.763 (d: 18.794)
G1 X-6.732 Y9.397 Z8.700 F4800.000 A541.779 (d: 0.4085)
G1 X-6.732 Y-9.397 Z8.700 F4800.000 A542.505 (d: 18.794)
G1 X-6.323 Y-9.397 Z8.700 F4800.000 A542.520 (d: 0.4085)
G1 X-6.323 Y9.397 Z8.700 F4800.000 A543.246 (d: 18.7941)
G1 X-5.915 Y9.397 Z8.700 F4800.000 A543.262 (d: 0.4085)
G1 X-5.915 Y-9.397 Z8.700 F4800.000 A543.987 (d: 18.7941)
G1 X-5.506 Y-9.397 Z8.700 F4800.000 A544.003 (d: 0.4085)
G1 X-5.506 Y9.397 Z8.700 F4800.000 A544.729 (d: 18.7941)
G1 X-5.098 Y9.397 Z8.700 F4800.000 A544.745 (d: 0.4085)
G1 X-5.098 Y-9.397 Z8.700 F4800.000 A545.470 (d: 18.7941)
G1 X-4.689 Y-9.397 Z8.700 F4800.000 A545.486 (d: 0.4085)
G1 X-4.689 Y9.397 Z8.700 F4800.000 A546.212 (d: 18.7942)
G1 X-4.281 Y9.397 Z8.700 F4800.000 A546.228 (d: 0.4085)
G1 X-4.281 Y-9.397 Z8.700 F4800.000 A546.953 (d: 18.7942)
G1 X-3.872 Y-9.397 Z8.700 F4800.000 A546.969 (d: 0.4085)
G1 X-3.872 Y9.397 Z8.700 F4800.000 A547.695 (d: 18.7942)
G1 X-3.464 Y9.397 Z8.700 F4800.000 A547.711 (d: 0.4085)
G1 X-3.464 Y-9.397 Z8.700 F4800.000 A548.436 (d: 18.7942)
G1 X-3.055 Y-9.397 Z8.700 F4800.000 A548.452 (d: 0.4085)
G1 X-3.055 Y9.397 Z8.700 F4800.000 A549.178 (d: 18.7943)
G1 X-2.647 Y9.397 Z8.700 F4800.000 A549.194 (d: 0.4085)
G1 X-2.647 Y-9.397 Z8.700 F4800.000 A549.919 (d: 18.7943)
G1 X-2.238 Y-9.397 Z8.700 F4800.000 A549.935 (d: 0.4085)
G1 X-2.238 Y9.397 Z8.700 F4800.000 A550.661 (d: 18.7943)
G1 X-1.830 Y9.397 Z8.700 F4800.000 A550.677 (d: 0.4085)
G1 X-1.830 Y-9.397 Z8.700 F4800.000 A551.402 (d: 18.7943)
G1 X-1.421 Y-9.397 Z8.700 F4800.000 A551.418 (d: 0.4085)
G1 X-1.421 Y9.397 Z8.700 F4800.000 A552.144 (d: 18.7944)
G1 X-1.013 Y9.397 Z8.700 F4800.000 A552.160 (d: 0.4085)
G1 X-1.013 Y-9.397 Z8.700 F4800.000 A552.885 (d: 18.7944)
G1 X-0.604 Y-9.397 Z8.700 F4800.000 A552.901 (d: 0.4085)
G1 X-0.604 Y9.397 Z8.700 F4800.000 A553.627 (d: 18.7944)
G1 X-0.196 Y9.397 Z8.700 F4800.000 A553.643 (d: 0.4085)
G1 X-0.196 Y-9.397 Z8.700 F4800.000 A554.368 (d: 18.7944)
G1 X0.213 Y-9.397 Z8.700 F4800.000 A554.384 (d: 0.4085)
G1 X0.213 Y9.397 Z8.700 F4800.000 A555.110 (d: 18.7945)
G1 F798.000 A554.610 (snort)

G1 X0.621 Y9.397 Z8.700 F6000.000 (move into position)
G1 F798.000 A555.110 (squirt)
G1 X0.621 Y-9.397 Z8.700 F4800.000 A555.836 (d: 18.7945)
G1 X1.030 Y-9.398 Z8.700 F4800.000 A555.851 (d: 0.4085)
G1 X1.030 Y9.397 Z8.700 F4800.000 A556.577 (d: 18.7945)
G1 X1.438 Y9.397 Z8.700 F4800.000 A556.593 (d: 0.4085)
G1 X1.438 Y-9.398 Z8.700 F4800.000 A557.319 (d: 18.7945)
G1 X1.847 Y-9.398 Z8.700 F4800.000 A557.334 (d: 0.4085)
G1 X1.847 Y9.397 Z8.700 F4800.000 A558.060 (d: 18.7946)
G1 X2.255 Y9.397 Z8.700 F4800.000 A558.076 (d: 0.4085)
G1 X2.255 Y-9.398 Z8.700 F4800.000 A558.802 (d: 18.7946)
G1 X2.664 Y-9.398 Z8.700 F4800.000 A558.817 (d: 0.4085)
G1 X2.664 Y9.397 Z8.700 F4800.000 A559.543 (d: 18.7946)
G1 X3.072 Y9.397 Z8.700 F4800.000 A559.559 (d: 0.4085)
G1 X3.072 Y-9.398 Z8.700 F4800.000 A560.285 (d: 18.7946)
G1 X3.481 Y-9.398 Z8.700 F4800.000 A560.300 (d: 0.4085)
G1 X3.481 Y9.397 Z8.700 F4800.000 A561.026 (d: 18.7946)
G1 X3.889 Y9.397 Z8.700 F4800.000 A561.042 (d: 0.4085)
G1 X3.889 Y-9.398 Z8.700 F4800.000 A561.768 (d: 18.7947)
G1 X4.298 Y-9.398 Z8.700 F4800.000 A561.783 (d: 0.4085)
G1 X4.298 Y9.397 Z8.700 F4800.000 A562.509 (d: 18.7947)
G1 X4.706 Y9.397 Z8.700 F4800.000 A562.525 (d: 0.4085)
G1 X4.706 Y-9.398 Z8.700 F4800.000 A563.251 (d: 18.7947)
G1 X5.115 Y-9.398 Z8.700 F4800.000 A563.266 (d: 0.4085)
G1 X5.115 Y9.397 Z8.700 F4800.000 A563.992 (d: 18.7947)
G1 X5.523 Y9.397 Z8.700 F4800.000 A564.008 (d: 0.4085)
G1 X5.523 Y-9.398 Z8.700 F4800.000 A564.734 (d: 18.7948)
G1 X5.932 Y-9.398 Z8.700 F4800.000 A564.749 (d: 0.4085)
G1 X5.932 Y9.397 Z8.700 F4800.000 A565.475 (d: 18.7948)
G1 X6.340 Y9.397 Z8.700 F4800.000 A565.491 (d: 0.4085)
G1 X6.340 Y-9.398 Z8.700 F4800.000 A566.217 (d: 18.7948)
G1 X6.749 Y-9.398 Z8.700 F4800.000 A566.232 (d: 0.4085)
G1 X6.749 Y9.397 Z8.700 F4800.000 A566.958 (d: 18.7948)
G1 X7.157 Y9.397 Z8.700 F4800.000 A566.974 (d: 0.4085)
G1 X7.157 Y-9.398 Z8.700 F4800.000 A567.700 (d: 18.7949)
G1 X7.566 Y-9.398 Z8.700 F4800.000 A567.715 (d: 0.4085)
G1 X7.566 Y9.397 Z8.700 F4800.000 A568.441 (d: 18.7949)
G1 X7.974 Y9.397 Z8.700 F4800.000 A568.457 (d: 0.4085)
G1 X7.974 Y-9.398 Z8.700 F4800.000 A569.183 (d: 18.7949)
G1 X8.383 Y-9.398 Z8.700 F4800.000 A569.198 (d: 0.4085)
G1 X8.383 Y9.397 Z8.700 F4800.000 A569.924 (d: 18.7949)
G1 X8.791 Y9.397 Z8.700 F4800.000 A569.940 (d: 0.4085)
G1 X8.791 Y-9.398 Z8.700 F4800.000 A570.666 (d: 18.795)
G1 X9.200 Y-9.398 Z8.700 F4800.000 A570.681 (d: 0.4085)
G1 X9.200 Y9.397 Z8.700 F4800.000 A571.407 (d: 18.795)
G1 F798.000 A570.907 (snort)

G1 X-9.183 Y9.397 Z8.700 F6000.000 (move into position)
G1 F798.000 A571.407 (squirt)
G1 X-9.183 Y-9.397 Z8.700 F4800.000 A572.133 (d: 18.794)
G1 F798.000 A571.633 (snort)

(Slice 32, 1 Extruder)
G1 Z8.970 F500.000 (move Z)
(insets: 2)
G1 X9.784 Y9.784 Z8.970 F6000.000 (move into position)
G1 F798.000 A572.133 (squirt)
G1 X9.784 Y-9.785 Z8.970 F4800.000 A572.889 (d: 19.569)
G1 X-7.939 Y-9.784 Z8.970 F4800.000 A573.573 (d: 17.723)
G1 X-9.784 Y-9.784 Z8.970 F4800.000 A573.644 (d: 1.845)
G1 X-9.784 Y9.784 Z8.970 F4800.000 A574.400 (d: 19.568)
G1 X9.784 Y9.784 Z8.970 F4800.000 A575.155 (d: 19.568)
G1 F798.000 A574.655 (snort)

G1 X9.397 Y9.397 Z8.970 F6000.000 (move into position)
G1 F798.000 A575.155 (squirt)
G1 X9.397 Y-9.398 Z8.970 F4800.000 A575.881 (d: 18.795)
G1 X-7.939 Y-9.397 Z8.970 F4800.000 A576.550 (d: 17.336)
G1 X-9.397 Y-9.397 Z8.970 F4800.000 A576.607 (d: 1.458)
G1 X-9.397 Y9.397 Z8.970 F4800.000 A577.332 (d: 18.794)
G1 X9.397 Y9.397 Z8.970 F4800.000 A578.058 (d: 18.794)
G1 F798.000 A577.558 (snort)

(infills: 1)
G1 X-9.397 Y-8.775 Z8.970 F6000.000 (move into position)
G1 F798.000 A578.058 (squirt)
G1 X9.397 Y-8.775 Z8.970 F4800.000 A578.784 (d: 18.794)
G1 X9.397 Y-8.366 Z8.970 F4800.000 A578.800 (d: 0.4085)
G1 X-9.397 Y-8.366 Z8.970 F4800.000 A579.525 (d: 18.794)
G1 X-9.397 Y-7.958 Z8.970 F4800.000 A579.541 (d: 0.4085)
G1 X9.397 Y-7.958 Z8.970 F4800.000 A580.267 (d: 18.794)
G1 X9.397 Y-7.549 Z8.970 F4800.000 A580.283 (d: 0.4085)
G1 X-9.397 Y-7.549 Z8.970 F4800.000 A581.008 (d: 18.794)
G1 X-9.397 Y-7.141 Z8.970 F4800.000 A581.024 (d: 0.4085)
G1 X9.397 Y-7.141 Z8.970 F4800.000 A581.750 (d: 18.794)
G1 X9.397 Y-6.732 Z8.970 F4800.000 A581.766 (d: 0.4085)
G1 X-9.397 Y-6.732 Z8.970 F4800.000 A582.491 (d: 18.794)
G1 X-9.397 Y-6.324 Z8.970 F4800.000 A582.507 (d: 0.4085)
G1 X9.397 Y-6.324 Z8.970 F4800.000 A583.233 (d: 18.794)
G1 X9.397 Y-5.915 Z8.970 F4800.000 A583.249 (d: 0.4085)
G1 X-9.397 Y-5.915 Z8.970 F4800.000 A583.974 (d: 18.794)
G1 X-9.397 Y-5.507 Z8.970 F4800.000 A583.990 (d: 0.4085)
G1 X9.397 Y-5.507 Z8.970 F4800.000 A584.716 (d: 18.794)
G1 X9.397 Y-5.098 Z8.970 F4800.000 A584.731 (d: 0.4085)
G1 X-9.397 Y-5.098 Z8.970 F4800.000 A585.457 (d: 18.794)
G1 X-9.397 Y-4.690 Z8.970 F4800.000 A585.473 (d: 0.4085)
G1 X9.397 Y-4.690 Z8.970 F4800.000 A586.199 (d: 18.794)
G1 X9.397 Y-4.281 Z8.970 F4800.000 A586.214 (d: 0.4085)
G1 X-9.397 Y-4.281 Z8.970 F4800.000 A586.940 (d: 18.794)
G1 X-9.397 Y-3.873 Z8.970 F4800.000 A586.956 (d: 0.4085)
G1 X9.397 Y-3.873 Z8.970 F4800.000 A587.682 (d: 18.794)
G1 X9.397 Y-3.464 Z8.970 F4800.000 A587.697 (d: 0.4085)
G1 X-9.397 Y-3.464 Z8.970 F4800.000 A588.423 (d: 18.794)
G1 X-9.397 Y-3.056 Z8.970 F4800.000 A588.439 (d: 0.4085)
G1 X9.397 Y-3.056 Z8.970 F4800.000 A589.165 (d: 18.794)
G1 X9.397 Y-2.647 Z8.970 F4800.000 A589.180 (d: 0.4085)
G1 X-9.397 Y-2.647 Z8.970 F4800.000 A589.906 (d: 18.794)
G1 X-9.397 Y-2.239 Z8.970 F4800.000 A589.922 (d: 0.4085)
G1 X9.397 Y-2.239 Z8.970 F4800.000 A590.648 (d: 18.794)
G1 X9.397 Y-1.830 Z8.970 F4800.000 A590.663 (d: 0.4085)
G1 X-9.397 Y-1.830 Z8.970 F4800.000 A591.389 (d: 18.794)
G1 X-9.397 Y-1.422 Z8.970 F4800.000 A591.405 (d: 0.4085)
G1 X9.397 Y-1.422 Z8.970 F4800.000 A592.131 (d: 18.794)
G1 X9.397 Y-1.013 Z8.970 F4800.000 A592.146 (d: 0.4085)
G1 X-9.397 Y-1.013 Z8.970 F4800.000 A592.872 (d: 18.794)
G1 X-9.397 Y-0.605 Z8.970 F4800.000 A592.888 (d: 0.4085)
G1 X9.397 Y-0.605 Z8.970 F4800.000 A593.613 (d: 18.794)
G1 X9.397 Y-0.196 Z8.970 F4800.000 A593.629 (d: 0.4085)
G1 X-9.397 Y-0.196 Z8.970 F4800.000 A594.355 (d: 18.794)
G1 X-9.397 Y0.212 Z8.970 F4800.000 A594.371 (d: 0.4085)
G1 X9.397 Y0.212 Z8.970 F4800.000 A595.096 (d: 18.794)
G1 X9.397 Y0.621 Z8.970 F4800.000 A595.112 (d: 0.4085)
G1 X-9.397 Y0.621 Z8.970 F4800.000 A595.838 (d: 18.794)
G1 X-9.397 Y1.029 Z8.970 F4800.000 A595.854 (d: 0.4085)
G1 X9.397 Y1.029 Z8.970 F4800.000 A596.579 (d: 18.794)
G1 X9.397 Y1.438 Z8.970 F4800.000 A596.595 (d: 0.4085)
G1 X-9.397 Y1.438 Z8.970 F4800.000 A597.321 (d: 18.794)
G1 X-9.397 Y1.846 Z8.970 F4800.000 A597.337 (d: 0.4085)
G1 X9.397 Y1.846 Z8.970 F4800.000 A598.062 (d: 18.794)
G1 X9.397 Y2.255 Z8.970 F4800.000 A598.078 (d: 0.4085)
G1 X-9.397 Y2.255 Z8.970 F4800.000 A598.804 (d: 18.794)
G1 X-9.397 Y2.663 Z8.970 F4800.000 A598.820 (d: 0.4085)
G1 X9.397 Y2.663 Z8.970 F4800.000 A599.545 (d: 18.794)
G1 X9.397 Y3.072 Z8.970 F4800.000 A599.561 (d: 0.4085)
G1 X-9.397 Y3.072 Z8.970 F4800.000 A600.287 (d: 18.794)
G1 X-9.397 Y3.480 Z8.970 F4800.000 A600.303 (d: 0.4085)
G1 X9.397 Y3.480 Z8.970 F4800.000 A601.028 (d: 18.794)
G1 X9.397 Y3.889 Z8.970 F4800.000 A601.044 (d: 0.4085)
G1 X-9.397 Y3.889 Z8.970 F4800.000 A601.770 (d: 18.794)
G1 X-9.397 Y4.297 Z8.970 F4800.000 A601.786 (d: 0.4085)
G1 X9.397 Y4.297 Z8.970 F4800.000 A602.511 (d: 18.794)
G1 X9.397 Y4.706 Z8.970 F4800.000 A602.527 (d: 0.4085)
G1 X-9.397 Y4.706 Z8.970 F4800.000 A603.253 (d: 18.794)
G1 X-9.397 Y5.114 Z8.970 F4800.000 A603.268 (d: 0.4085)
G1 X9.397 Y5.114 Z8.970 F4800.000 A603.994 (d: 18.794)
G1 X9.397 Y5.523 Z8.970 F4800.000 A604.010 (d: 0.4085)
G1 X-9.397 Y5.523 Z8.970 F4800.000 A604.736 (d: 18.794)
G1 X-9.397 Y5.931 Z8.970 F4800.000 A604.751 (d: 0.4085)
G1 X9.397 Y5.931 Z8.970 F4800.000 A605.477 (d: 18.794)
G1 X9.397 Y6.340 Z8.970 F4800.000 A605.493 (d: 0.4085)
G1 X-9.397 Y6.340 Z8.970 F4800.000 A606.219 (d: 18.794)
G1 X-9.397 Y6.748 Z8.970 F4800.000 A606.234 (d: 0.4085)
G1 X9.397 Y6.748 Z8.970 F4800.000 A606.960 (d: 18.794)
G1 X9.397 Y7.157 Z8.970 F4800.000 A606.976 (d: 0.4085)
G1 X-9.397 Y7.157 Z8.970 F4800.000 A607.702 (d: 18.794)
G1 X-9.397 Y7.565 Z8.970 F4800.000 A607.717 (d: 0.4085)
G1 X9.397 Y7.565 Z8.970 F4800.000 A608.443 (d: 18.794)
G1 X9.397 Y7.974 Z8.970 F4800.000 A608.459 (d: 0.4085)
G1 X-9.397 Y7.974 Z8.970 F4800.000 A609.185 (d: 18.794)
G1 X-9.397 Y8.382 Z8.970 F4800.000 A609.200 (d: 0.4085)
G1 X9.397 Y8.382 Z8.970 F4800.000 A609.926 (d: 18.794)
G1 X9.397 Y8.791 Z8.970 F4800.000 A609.942 (d: 0.4085)
G1 X-9.397 Y8.791 Z8.970 F4800.000 A610.667 (d: 18.794)
G1 X-9.397 Y9.199 Z8.970 F4800.000 A610.683 (d: 0.4085)
G1 X9.397 Y9.199 Z8.970 F4800.000 A611.409 (d: 18.794)
G1 X9.397 Y-9.183 Z8.970 F4800.000 A612.119 (d: 18.3825)
G1 X-9.397 Y-9.183 Z8.970 F4800.000 A612.844 (d: 18.794)
G1 F798.000 A612.344 (snort)

(Slice 33, 1 Extruder)
G1 Z9.240 F500.000 (move Z)
(insets: 2)
G1 X9.784 Y9.784 Z9.240 F6000.000 (move into position)
G1 F798.000 A612.844 (squirt)
G1 X9.784 Y-9.785 Z9.240 F4800.000 A613.600 (d: 19.569)
G1 X-8.479 Y-9.784 Z9.240 F4800.000 A614.305 (d: 18.263)
G1 X-9.784 Y-9.784 Z9.240 F4800.000 A614.356 (d: 1.305)
G1 X-9.784 Y9.784 Z9.240 F4800.000 A615.111 (d: 19.568)
G1 X9.784 Y9.784 Z9.240 F4800.000 A615.867 (d: 19.568)
G1 F798.000 A615.367 (snort)

G1 X9.397 Y9.397 Z9.240 F6000.000 (move into position)
G1 F798.000 A615.867 (squirt)
G1 X9.397 Y-9.398 Z9.240 F4800.000 A616.593 (d: 18.795)
G1 X-8.478 Y-9.397 Z9.240 F4800.000 A617.283 (d: 17.875)
G1 X-9.397 Y-9.397 Z9.240 F4800.000 A617.318 (d: 0.919)
G1 X-9.397 Y9.397 Z9.240 F4800.000 A618.044 (d: 18.794)
G1 X9.397 Y9.397 Z9.240 F4800.000 A618.770 (d: 18.794)
G1 F798.000 A618.270 (snort)

(infills: 3)
G1 X-8.774 Y-9.397 Z9.240 F6000.000 (move into position)
G1 F798.000 A618.770 (squirt)
G1 X-8.774 Y9.397 Z9.240 F4800.000 A619.495 (d: 18.794)
G1 X-8.366 Y9.397 Z9.240 F4800.000 A619.511 (d: 0.4085)
G1 X-8.366 Y-9.397 Z9.240 F4800.000 A620.237 (d: 18.794)
G1 X-7.957 Y-9.397 Z9.240 F4800.000 A620.253 (d: 0.4085)
G1 X-7.957 Y9.397 Z9.240 F4800.000 A620.978 (d: 18.794)
G1 X-7.549 Y9.397 Z9.240 F4800.000 A620.994 (d: 0.4085)
G1 X-7.549 Y-9.397 Z9.240 F4800.000 A621.720 (d: 18.7941)
G1 X-7.140 Y-9.397 Z9.240 F4800.000 A621.736 (d: 0.4085)
G1 X-7.140 Y9.397 Z9.240 F4800.000 A622.461 (d: 18.7941)
G1 X-6.732 Y9.397 Z9.240 F4800.000 A622.477 (d: 0.4085)
G1 X-6.732 Y-9.397 Z9.240 F4800.000 A623.203 (d: 18.7941)
G1 X-6.323 Y-9.397 Z9.240 F4800.000 A623.219 (d: 0.4085)
G1 X-6.323 Y9.397 Z9.240 F4800.000 A623.944 (d: 18.7941)
G1 X-5.915 Y9.397 Z9.240 F4800.000 A623.960 (d: 0.4085)
G1 X-5.915 Y-9.397 Z9.240 F4800.000 A624.686 (d: 18.7941)
G1 X-5.506 Y-9.397 Z9.240 F4800.000 A624.702 (d: 0.4085)
G1 X-5.506 Y9.397 Z9.240 F4800.000 A625.427 (d: 18.7942)
G1 X-5.098 Y9.397 Z9.240 F4800.000 A625.443 (d: 0.4085)
G1 X-5.098 Y-9.397 Z9.240 F4800.000 A626.169 (d: 18.7942)
G1 X-4.689 Y-9.397 Z9.240 F4800.000 A626.185 (d: 0.4085)
G1 X-4.689 Y9.397 Z9.240 F4800.000 A626.910 (d: 18.7942)
G1 X-4.281 Y9.397 Z9.240 F4800.000 A626.926 (d: 0.4085)
G1 X-4.281 Y-9.397 Z9.240 F4800.000 A627.652 (d: 18.7942)
G1 X-3.872 Y-9.397 Z9.240 F4800.000 A627.668 (d: 0.4085)
G1 X-3.872 Y9.397 Z9.240 F4800.000 A628.393 (d: 18.7943)
G1 X-3.464 Y9.397 Z9.240 F4800.000 A628.409 (d: 0.4085)
G1 X-3.464 Y-9.397 Z9.240 F4800.000 A629.135 (d: 18.7943)
G1 X-3.055 Y-9.397 Z9.240 F4800.000 A629.151 (d: 0.4085)
G1 X-3.055 Y9.397 Z9.240 F4800.000 A629.876 (d: 18.7943)
G1 X-2.647 Y9.397 Z9.240 F4800.000 A629.892 (d: 0.4085)
G1 X-2.647 Y-9.397 Z9.240 F4800.000 A630.618 (d: 18.7943)
G1 X-2.238 Y-9.397 Z9.240 F4800.000 A630.634 (d: 0.4085)
G1 X-2.238 Y9.397 Z9.240 F4800.000 A631.359 (d: 18.7943)
G1 X-1.830 Y9.397 Z9.240 F4800.000 A631.375 (d: 0.4085)
G1 X-1.830 Y-9.397 Z9.240 F4800.000 A632.101 (d: 18.7944)
G1 X-1.421 Y-9.397 Z9.240 F4800.000 A632.117 (d: 0.4085)
G1 X-1.421 Y9.397 Z9.240 F4800.000 A632.842 (d: 18.7944)
G1 X-1.013 Y9.397 Z9.240 F4800.000 A632.858 (d: 0.4085)
G1 X-1.013 Y-9.397 Z9.240 F4800.000 A633.584 (d: 18.7944)
G1 X-0.604 Y-9.397 Z9.240 F4800.000 A633.599 (d: 0.4085)
G1 X-0.604 Y9.397 Z9.240 F4800.000 A634.325 (d: 18.7944)
G1 X-0.196 Y9.397 Z9.240 F4800.000 A634.341 (d: 0.4085)
G1 X-0.196 Y-9.397 Z9.240 F4800.000 A635.067 (d: 18.7945)
G1 X0.213 Y-9.397 Z9.240 F4800.000 A635.082 (d: 0.4085)
G1 X0.213 Y9.397 Z9.240 F4800.000 A635.808 (d: 18.7945)
G1 F798.000 A635.308 (snort)

G1 X0.621 Y9.397 Z9.240 F6000.000 (move into position)
G1 F798.000 A635.808 (squirt)
G1 X0.621 Y-9.398 Z9.240 F4800.000 A636.534 (d: 18.7945)
G1 X1.030 Y-9.398 Z9.240 F4800.000 A636.550 (d: 0.4085)
G1 X1.030 Y9.397 Z9.240 F4800.000 A637.275 (d: 18.7945)
G1 X1.438 Y9.397 Z9.240 F4800.000 A637.291 (d: 0.4085)
G1 X1.438 Y-9.398 Z9.240 F4800.000 A638.017 (d: 18.7946)
G1 X1.847 Y-9.398 Z9.240 F4800.000 A638.033 (d: 0.4085)
G1 X1.847 Y9.397 Z9.240 F4800.000 A638.758 (d: 18.7946)
G1 X2.255 Y9.397 Z9.240 F4800.000 A638.774 (d: 0.4085)
G1 X2.255 Y-9.398 Z9.240 F4800.000 A639.500 (d: 18.7946)
G1 X2.664 Y-9.398 Z9.240 F4800.000 A639.516 (d: 0.4085)
G1 X2.664 Y9.397 Z9.240 F4800.000 A640.241 (d: 18.7946)
G1 X3.072 Y9.397 Z9.240 F4800.000 A640.257 (d: 0.4085)
G1 X3.072 Y-9.398 Z9.240 F4800.000 A640.983 (d: 18.7946)
G1 X3.481 Y-9.398 Z9.240 F4800.000 A640.999 (d: 0.4085)
G1 X3.481 Y9.397 Z9.240 F4800.000 A641.724 (d: 18.7947)
G1 X3.889 Y9.397 Z9.240 F4800.000 A641.740 (d: 0.4085)
G1 X3.889 Y-9.398 Z9.240 F4800.000 A642.466 (d: 18.7947)
G1 X4.298 Y-9.398 Z9.240 F4800.000 A642.482 (d: 0.4085)
G1 X4.298 Y9.397 Z9.240 F4800.000 A643.207 (d: 18.7947)
G1 X4.706 Y9.397 Z9.240 F4800.000 A643.223 (d: 0.4085)
G1 X4.706 Y-9.398 Z9.240 F4800.000 A643.949 (d: 18.7947)
G1 X5.115 Y-9.398 Z9.240 F4800.000 A643.965 (d: 0.4085)
G1 X5.115 Y9.397 Z9.240 F4800.000 A644.690 (d: 18.7948)
G1 X5.523 Y9.397 Z9.240 F4800.000 A644.706 (d: 0.4085)
G1 X5.523 Y-9.398 Z9.240 F4800.000 A645.432 (d: 18.7948)
G1 X5.932 Y-9.398 Z9.240 F4800.000 A645.448 (d: 0.4085)
G1 X5.932 Y9.397 Z9.240 F4800.000 A646.174 (d: 18.7948)
G1 X6.340 Y9.397 Z9.240 F4800.000 A646.189 (d: 0.4085)
G1 X6.340 Y-9.398 Z9.240 F4800.000 A646.915 (d: 18.7948)
G1 X6.749 Y-9.398 Z9.240 F4800.000 A646.931 (d: 0.4085)
G1 X6.749 Y9.397 Z9.240 F4800.000 A647.657 (d: 18.7949)
G1 X7.157 Y9.397 Z9.240 F4800.000 A647.672 (d: 0.4085)
G1 X7.157 Y-9.398 Z9.240 F4800.000 A648.398 (d: 18.7949)
G1 X7.566 Y-9.398 Z9.240 F4800.000 A648.414 (d: 0.4085)
G1 X7.566 Y9.397 Z9.240 F4800.000 A649.140 (d: 18.7949)
G1 X7.974 Y9.397 Z9.240 F4800.000 A649.155 (d: 0.4085)
G1 X7.974 Y-9.398 Z9.240 F4800.000 A649.881 (d: 18.7949)
G1 X8.383 Y-9.398 Z9.240 F4800.000 A649.897 (d: 0.4085)
G1 X8.383 Y9.397 Z9.240 F4800.000 A650.623 (d: 18.7949)
G1 X8.791 Y9.397 Z9.240 F4800.000 A650.638 (d: 0.4085)
G1 X8.791 Y-9.398 Z9.240 F4800.000 A651.364 (d: 18.795)
G1 X9.200 Y-9.398 Z9.240 F4800.000 A651.380 (d: 0.4085)
G1 X9.200 Y9.397 Z9.240 F4800.000 A652.106 (d: 18.795)
G1 F798.000 A651.606 (snort)

G1 X-9.183 Y9.397 Z9.240 F6000.000 (move into position)
G1 F798.000 A652.106 (squirt)
G1 X-9.183 Y-9.397 Z9.240 F4800.000 A652.831 (d: 18.794)
G1 F798.000 A652.331 (snort)

(Slice 34, 1 Extruder)
G1 Z9.510 F500.000 (move Z)
(insets: 2)
G1 X9.784 Y9.784 Z9.510 F6000.000 (move into position)
G1 F798.000 A652.831 (squirt)
G1 X9.784 Y-9.785 Z9.510 F4800.000 A653.587 (d: 19.569)
G1 X-9.019 Y-9.784 Z9.510 F4800.000 A654.313 (d: 18.803)
G1 X-9.784 Y-9.784 Z9.510 F4800.000 A654.343 (d: 0.765)
G1 X-9.784 Y9.784 Z9.510 F4800.000 A655.098 (d: 19.568)
G1 X9.784 Y9.784 Z9.510 F4800.000 A655.854 (d: 19.568)
G1 F798.000 A655.354 (snort)

G1 X9.397 Y9.397 Z9.510 F6000.000 (move into position)
G1 F798.000 A655.854 (squirt)
G1 X9.397 Y-9.398 Z9.510 F4800.000 A656.579 (d: 18.795)
G1 X-9.019 Y-9.397 Z9.510 F4800.000 A657.291 (d: 18.416)
G1 X-9.397 Y-9.397 Z9.510 F4800.000 A657.305 (d: 0.378)
G1 X-9.397 Y9.397 Z9.510 F4800.000 A658.031 (d: 18.794)
G1 X9.397 Y9.397 Z9.510 F4800.000 A658.757 (d: 18.794)
G1 F798.000 A658.257 (snort)

(infills: 2)
G1 X-9.397 Y-8.775 Z9.510 F6000.000 (move into position)
G1 F798.000 A658.757 (squirt)
G1 X9.397 Y-8.775 Z9.510 F4800.000 A659.482 (d: 18.794)
G1 X9.397 Y-8.366 Z9.510 F4800.000 A659.498 (d: 0.4085)
G1 X-9.397 Y-8.366 Z9.510 F4800.000 A660.224 (d: 18.794)
G1 X-9.397 Y-7.958 Z9.510 F4800.000 A660.240 (d: 0.4085)
G1 X9.397 Y-7.958 Z9.510 F4800.000 A660.965 (d: 18.794)
G1 X9.397 Y-7.549 Z9.510 F4800.000 A660.981 (d: 0.4085)
G1 X-9.397 Y-7.549 Z9.510 F4800.000 A661.707 (d: 18.794)
G1 X-9.397 Y-7.141 Z9.510 F4800.000 A661.723 (d: 0.4085)
G1 X9.397 Y-7.141 Z9.510 F4800.000 A662.448 (d: 18.794)
G1 X9.397 Y-6.732 Z9.510 F4800.000 A662.464 (d: 0.4085)
G1 X-9.397 Y-6.732 Z9.510 F4800.000 A663.190 (d: 18.794)
G1 X-9.397 Y-6.324 Z9.510 F4800.000 A663.205 (d: 0.4085)
G1 X9.397 Y-6.324 Z9.510 F4800.000 A663.931 (d: 18.794)
G1 X9.397 Y-5.915 Z9.510 F4800.000 A663.947 (d: 0.4085)
G1 X-9.397 Y-5.915 Z9.510 F4800.000 A664.673 (d: 18.794)
G1 X-9.397 Y-5.507 Z9.510 F4800.000 A664.688 (d: 0.4085)
G1 X9.397 Y-5.507 Z9.510 F4800.000 A665.414 (d: 18.794)
G1 X9.397 Y-5.098 Z9.510 F4800.000 A665.430 (d: 0.4085)
G1 X-9.397 Y-5.098 Z9.510 F4800.000 A666.156 (d: 18.794)
G1 X-9.397 Y-4.690 Z9.510 F4800.000 A666.171 (d: 0.4085)
G1 X9.397 Y-4.690 Z9.510 F4800.000 A666.897 (d: 18.794)
G1 X9.397 Y-4.281 Z9.510 F4800.000 A666.913 (d: 0.4085)
G1 X-9.397 Y-4.281 Z9.510 F4800.000 A667.639 (d: 18.794)
G1 X-9.397 Y-3.873 Z9.510 F4800.000 A667.654 (d: 0.4085)
G1 X9.397 Y-3.873 Z9.510 F4800.000 A668.380 (d: 18.794)
G1 X9.397 Y-3.464 Z9.510 F4800.000 A668.396 (d: 0.4085)
G1 X-9.397 Y-3.464 Z9.510 F4800.000 A669.122 (d: 18.794)
G1 X-9.397 Y-3.056 Z9.510 F4800.000 A669.137 (d: 0.4085)
G1 X9.397 Y-3.056 Z9.510 F4800.000 A669.863 (d: 18.794)
G1 X9.397 Y-2.647 Z9.510 F4800.000 A669.879 (d: 0.4085)
G1 X-9.397 Y-2.647 Z9.510 F4800.000 A670.604 (d: 18.794)
G1 X-9.397 Y-2.239 Z9.510 F4800.000 A670.620 (d: 0.4085)
G1 X9.397 Y-2.239 Z9.510 F4800.000 A671.346 (d: 18.794)
G1 X9.397 Y-1.830 Z9.510 F4800.000 A671.362 (d: 0.4085)
G1 X-9.397 Y-1.830 Z9.510 F4800.000 A672.087 (d: 18.794)
G1 X-9.397 Y-1.422 Z9.510 F4800.000 A672.103 (d: 0.4085)
G1 X9.397 Y-1.422 Z9.510 F4800.000 A672.829 (d: 18.794)
G1 X9.397 Y-1.013 Z9.510 F4800.000 A672.845 (d: 0.4085)
G1 X-9.397 Y-1.013 Z9.510 F4800.000 A673.570 (d: 18.794)
G1 X-9.397 Y-0.605 Z9.510 F4800.000 A673.586 (d: 0.4085)
G1 X9.397 Y-0.605 Z9.510 F4800.000 A674.312 (d: 18.794)
G1 X9.397 Y-0.196 Z9.510 F4800.000 A674.328 (d: 0.4085)
G1 X-9.397 Y-0.196 Z9.510 F4800.000 A675.053 (d: 18.794)
G1 X-9.397 Y0.212 Z9.510 F4800.000 A675.069 (d: 0.4085)
G1 X9.397 Y0.212 Z9.510 F4800.000 A675.795 (d: 18.794)
G1 X9.397 Y0.621 Z9.510 F4800.000 A675.811 (d: 0.4085)
G1 X-9.397 Y0.621 Z9.510 F4800.000 A676.536 (d: 18.794)
G1 X-9.397 Y1.029 Z9.510 F4800.000 A676.552 (d: 0.4085)
G1 X9.397 Y1.029 Z9.510 F4800.000 A677.278 (d: 18.794)
G1 X9.397 Y1.438 Z9.510 F4800.000 A677.294 (d: 0.4085)
G1 X-9.397 Y1.438 Z9.510 F4800.000 A678.019 (d: 18.794)
G1 X-9.397 Y1.846 Z9.510 F4800.000 A678.035 (d: 0.4085)
G1 X9.397 Y1.846 Z9.510 F4800.000 A678.761 (d: 18.794)
G1 X9.397 Y2.255 Z9.510 F4800.000 A678.777 (d: 0.4085)
G1 X-9.397 Y2.255 Z9.510 F4800.000 A679.502 (d: 18.794)
G1 X-9.397 Y2.663 Z9.510 F4800.000 A679.518 (d: 0.4085)
G1 X9.397 Y2.663 Z9.510 F4800.000 A680.244 (d: 18.794)
G1 X9.397 Y3.072 Z9.510 F4800.000 A680.259 (d: 0.4085)
G1 X-9.397 Y3.072 Z9.510 F4800.000 A680.985 (d: 18.794)
G1 X-9.397 Y3.480 Z9.510 F4800.000 A681.001 (d: 0.4085)
G1 X9.397 Y3.480 Z9.510 F4800.000 A681.727 (d: 18.794)
G1 X9.397 Y3.889 Z9.510 F4800.000 A681.742 (d: 0.4085)
G1 X-9.397 Y3.889 Z9.510 F4800.000 A682.468 (d: 18.794)
G1 X-9.397 Y4.297 Z9.510 F4800.000 A682.484 (d: 0.4085)
G1 X9.397 Y4.297 Z9.510 F4800.000 A683.210 (d: 18.794)
G1 X9.397 Y4.706 Z9.510 F4800.000 A683.225 (d: 0.4085)
G1 X-9.397 Y4.706 Z9.510 F4800.000 A683.951 (d: 18.794)
G1 X-9.397 Y5.114 Z9.510 F4800.000 A683.967 (d: 0.4085)
G1 X9.397 Y5.114 Z9.510 F4800.000 A684.693 (d: 18.794)
G1 X9.397 Y5.523 Z9.510 F4800.000 A684.708 (d: 0.4085)
G1 X-9.397 Y5.523 Z9.510 F4800.000 A685.434 (d: 18.794)
G1 X-9.397 Y5.931 Z9.510 F4800.000 A685.450 (d: 0.4085)
G1 X9.397 Y5.931 Z9.510 F4800.000 A686.176 (d: 18.794)
